;FLAVOR:Repetier
;TIME:3057
;Generated with Cura_SteamEngine 3.4.1
M104 S212
M109 S212
M82 ;absolute extrusion mode
G28 ;Home
G1 Z15.0 F6000 ;Move the platform down 15mm
;Prime the extruder
G92 E0
G1 F200 E3
G92 E0
G92 E0
G1 F1200 E-0.5
;LAYER_COUNT:260
;LAYER:0
M107
M202 X5000 Y5000
M207 X30
G0 F3600 X83.354 Y84.001 Z0.35
M201 X500 Y500
M207 X20
;TYPE:SKIRT
G1 F1200 E0
G1 F1800 X83.976 Y83.406 E0.0501
G1 X85.563 Y82.007 E0.17324
G1 X86.28 Y81.428 E0.22688
G1 X87.015 Y80.932 E0.27849
G1 X88.816 Y79.823 E0.4016
G1 X89.62 Y79.375 E0.45517
G1 X90.422 Y79.013 E0.50639
G1 X92.393 Y78.221 E0.63002
G1 X93.261 Y77.916 E0.68358
G1 X94.109 Y77.695 E0.73458
G1 X96.176 Y77.249 E0.85766
G1 X97.084 Y77.095 E0.91127
G1 X97.968 Y77.02 E0.9629
G1 X100.091 Y76.931 E1.08658
G1 X101.012 Y76.933 E1.14019
G1 X101.9 Y77.01 E1.19207
G1 X104.018 Y77.285 E1.31638
G1 X104.925 Y77.443 E1.36997
G1 X105.683 Y77.639 E1.41554
G1 X107.044 Y78.045 E1.49821
G1 X107.99 Y78.377 E1.55656
G1 X109.27 Y78.895 E1.63693
G1 X110.133 Y79.29 E1.69218
G1 X111.392 Y79.936 E1.77454
G1 X112.192 Y80.391 E1.82811
G1 X112.861 Y80.848 E1.87527
G1 X114.549 Y82.098 E1.99752
G1 X115.265 Y82.678 E2.05116
G1 X115.882 Y83.271 E2.10097
G1 X117.352 Y84.8 E2.22442
G1 X117.961 Y85.49 E2.27799
G1 X118.446 Y86.14 E2.32519
G1 X119.258 Y87.321 E2.40861
G1 X119.773 Y88.151 E2.46547
G1 X120.445 Y89.352 E2.54557
G1 X120.884 Y90.228 E2.6026
G1 X121.464 Y91.535 E2.68583
G1 X121.8 Y92.392 E2.73941
G1 X122.031 Y93.156 E2.78587
G1 X122.562 Y95.189 E2.90817
G1 X122.756 Y96.089 E2.96176
G1 X122.869 Y96.985 E3.01432
G1 X123.05 Y99.15 E3.14078
G1 X123.087 Y100.07 E3.19437
G1 X123.049 Y100.934 E3.24471
G1 X122.874 Y102.985 E3.36452
G1 X122.756 Y103.898 E3.4181
G1 X122.595 Y104.657 E3.46326
G1 X122.248 Y106.044 E3.54648
G1 X122.195 Y106.247 E3.55869
G1 X122.014 Y106.914 E3.59892
G1 X121.735 Y107.791 E3.65249
G1 X121.448 Y108.493 E3.69663
G1 X120.566 Y110.45 E3.82157
G1 X120.151 Y111.273 E3.87522
G1 X119.681 Y112.035 E3.92733
G1 X118.495 Y113.788 E4.05052
G1 X117.947 Y114.527 E4.10407
G1 X117.363 Y115.189 E4.15545
G1 X115.901 Y116.712 E4.27833
G1 X115.235 Y117.347 E4.3319
G1 X114.551 Y117.898 E4.38302
G1 X112.826 Y119.172 E4.50784
G1 X112.063 Y119.686 E4.56139
G1 X111.306 Y120.108 E4.61183
G1 X109.442 Y121.049 E4.73337
G1 X108.603 Y121.427 E4.78693
G1 X107.759 Y121.724 E4.83901
G1 X105.721 Y122.346 E4.96303
G1 X104.83 Y122.577 E5.01661
G1 X103.985 Y122.721 E5.0665
G1 X101.895 Y122.991 E5.18916
G1 X100.978 Y123.069 E5.24272
G1 X100.093 Y123.069 E5.29424
G1 X97.97 Y122.98 E5.41791
G1 X97.053 Y122.901 E5.47149
G1 X96.173 Y122.749 E5.52347
G1 X94.093 Y122.299 E5.64733
G1 X93.202 Y122.066 E5.70094
G1 X92.458 Y121.805 E5.74683
G1 X91.147 Y121.29 E5.82881
G1 X90.243 Y120.885 E5.88647
G1 X88.99 Y120.252 E5.96818
G1 X88.151 Y119.779 E6.02424
G1 X86.964 Y119.037 E6.10572
G1 X86.206 Y118.516 E6.15925
G1 X85.567 Y117.995 E6.20724
G1 X83.943 Y116.561 E6.33334
G1 X83.28 Y115.922 E6.38694
G1 X82.706 Y115.267 E6.43763
G1 X81.401 Y113.648 E6.55867
G1 X80.855 Y112.907 E6.61224
G1 X80.399 Y112.164 E6.66298
G1 X79.366 Y110.314 E6.78631
G1 X78.953 Y109.491 E6.83991
G1 X78.629 Y108.685 E6.89047
G1 X77.921 Y106.686 E7.01391
G1 X77.652 Y105.806 E7.06747
G1 X77.464 Y104.932 E7.1195
G1 X77.106 Y102.837 E7.24321
G1 X76.991 Y101.924 E7.29677
G1 X76.955 Y101.047 E7.34786
G1 X76.956 Y98.928 E7.4712
G1 X76.996 Y98.008 E7.5248
G1 X77.109 Y97.137 E7.57592
G1 X77.467 Y95.055 E7.69888
G1 X77.663 Y94.155 E7.75249
G1 X77.921 Y93.316 E7.80358
G1 X78.626 Y91.323 E7.92663
G1 X78.97 Y90.469 E7.98022
G1 X79.365 Y89.688 E8.03116
G1 X80.403 Y87.83 E8.15504
G1 X80.887 Y87.047 E8.20862
G1 X81.416 Y86.334 E8.26029
G1 X82.745 Y84.691 E8.38329
G1 X83.354 Y84.001 E8.43686
M207 X30
G0 F3600 X83.654 Y84.266
M207 X20
G1 F1800 X84.241 Y83.706 E8.48408
G1 X85.828 Y82.307 E8.60722
G1 X86.531 Y81.74 E8.65979
G1 X87.225 Y81.273 E8.70847
G1 X89.026 Y80.164 E8.83158
G1 X89.815 Y79.725 E8.88414
G1 X90.571 Y79.385 E8.93238
G1 X92.542 Y78.593 E9.05602
G1 X93.394 Y78.293 E9.1086
G1 X94.194 Y78.086 E9.1567
G1 X96.261 Y77.64 E9.27977
G1 X97.151 Y77.489 E9.33232
G1 X97.985 Y77.42 E9.38103
G1 X100.108 Y77.331 E9.5047
G1 X101.011 Y77.333 E9.55726
G1 X101.848 Y77.407 E9.60617
G1 X103.966 Y77.682 E9.73049
G1 X104.856 Y77.838 E9.78308
G1 X105.569 Y78.023 E9.82595
G1 X106.93 Y78.429 E9.90862
G1 X107.84 Y78.748 E9.96475
G1 X109.12 Y79.266 E10.04512
G1 X109.95 Y79.646 E10.09825
G1 X111.209 Y80.292 E10.18062
G1 X111.994 Y80.739 E10.23319
G1 X112.623 Y81.17 E10.27758
G1 X114.311 Y82.42 E10.39983
G1 X115.012 Y82.989 E10.45238
G1 X115.594 Y83.548 E10.49935
G1 X117.064 Y85.077 E10.62281
G1 X117.66 Y85.755 E10.67535
G1 X118.116 Y86.367 E10.71977
G1 X118.928 Y87.548 E10.80319
G1 X119.424 Y88.346 E10.85788
G1 X120.096 Y89.547 E10.93799
G1 X120.518 Y90.391 E10.99291
G1 X121.098 Y91.698 E11.07614
G1 X121.428 Y92.539 E11.12872
G1 X121.644 Y93.257 E11.17236
G1 X122.175 Y95.29 E11.29467
G1 X122.364 Y96.173 E11.34723
G1 X122.471 Y97.018 E11.3968
G1 X122.652 Y99.183 E11.52326
G1 X122.687 Y100.086 E11.57585
G1 X122.65 Y100.9 E11.62328
G1 X122.475 Y102.951 E11.74309
G1 X122.359 Y103.847 E11.79568
G1 X122.207 Y104.56 E11.83811
G1 X121.86 Y105.947 E11.92133
G1 X121.809 Y106.142 E11.93307
G1 X121.628 Y106.809 E11.97329
G1 X121.353 Y107.67 E12.0259
G1 X121.083 Y108.329 E12.06735
G1 X120.201 Y110.286 E12.19229
G1 X119.794 Y111.092 E12.24485
G1 X119.35 Y111.811 E12.29404
G1 X118.164 Y113.564 E12.41723
G1 X117.625 Y114.289 E12.46981
G1 X117.074 Y114.912 E12.51822
G1 X115.612 Y116.435 E12.6411
G1 X114.959 Y117.058 E12.69363
G1 X114.314 Y117.576 E12.74178
G1 X112.589 Y118.85 E12.8666
G1 X111.839 Y119.354 E12.9192
G1 X111.126 Y119.751 E12.9667
G1 X109.262 Y120.692 E13.08823
G1 X108.438 Y121.062 E13.14081
G1 X107.642 Y121.342 E13.18992
G1 X105.604 Y121.964 E13.31394
G1 X104.73 Y122.189 E13.36647
G1 X103.934 Y122.324 E13.41347
G1 X101.844 Y122.594 E13.53613
G1 X100.944 Y122.67 E13.5887
G1 X100.11 Y122.669 E13.63724
G1 X97.987 Y122.58 E13.76092
G1 X97.087 Y122.502 E13.8135
G1 X96.257 Y122.358 E13.86253
G1 X94.177 Y121.908 E13.9864
G1 X93.304 Y121.679 E14.03893
G1 X92.605 Y121.433 E14.08206
G1 X91.294 Y120.918 E14.16405
G1 X90.424 Y120.528 E14.21954
G1 X89.171 Y119.895 E14.30125
G1 X88.363 Y119.44 E14.35522
G1 X87.176 Y118.698 E14.4367
G1 X86.433 Y118.186 E14.48922
G1 X85.832 Y117.695 E14.53439
G1 X84.208 Y116.261 E14.6605
G1 X83.558 Y115.634 E14.71306
G1 X83.018 Y115.016 E14.76083
G1 X81.713 Y113.397 E14.88187
G1 X81.178 Y112.67 E14.9344
G1 X80.748 Y111.969 E14.98227
G1 X79.715 Y110.119 E15.1056
G1 X79.31 Y109.312 E15.15815
G1 X79.006 Y108.551 E15.20585
G1 X78.298 Y106.552 E15.32929
G1 X78.035 Y105.689 E15.3818
G1 X77.859 Y104.865 E15.43084
G1 X77.501 Y102.77 E15.55455
G1 X77.388 Y101.874 E15.60711
G1 X77.355 Y101.047 E15.65529
G1 X77.356 Y98.928 E15.77863
G1 X77.396 Y98.026 E15.83118
G1 X77.504 Y97.204 E15.87943
G1 X77.862 Y95.122 E16.0024
G1 X78.054 Y94.24 E16.05493
G1 X78.298 Y93.449 E16.10312
G1 X79.003 Y91.456 E16.22616
G1 X79.341 Y90.619 E16.2787
G1 X79.714 Y89.883 E16.32673
G1 X80.752 Y88.025 E16.45061
G1 X81.227 Y87.257 E16.50317
G1 X81.727 Y86.585 E16.55192
G1 X83.056 Y84.942 E16.67492
G1 X83.654 Y84.266 E16.72745
M207 X30
G1 F1200 E16.22745
G0 F3600 X98.22 Y86.963
G0 X98.489 Y88.218
G0 X102.484 Y88.467
G0 X102.505 Y88.37
M207 X20
;TYPE:WALL-INNER
G1 F1200 E16.72745
G1 F1800 X104.436 Y88.96 E16.84498
G1 X106.235 Y89.868 E16.96227
G1 X107.864 Y91.072 E17.08017
G1 X109.256 Y92.524 E17.19725
G1 X110.387 Y94.196 E17.31474
G1 X111.217 Y96.036 E17.43223
G1 X111.727 Y97.989 E17.54972
G1 X111.897 Y100.011 E17.66783
G1 X111.728 Y101.985 E17.78314
G1 X111.22 Y103.958 E17.90173
G1 X110.387 Y105.804 E18.01961
G1 X109.256 Y107.476 E18.1371
G1 X107.862 Y108.929 E18.2543
G1 X106.223 Y110.138 E18.37285
G1 X104.436 Y111.04 E18.48936
G1 X102.496 Y111.631 E18.6074
G1 X100.509 Y111.887 E18.72401
G1 X98.487 Y111.801 E18.84181
G1 X96.516 Y111.376 E18.95917
G1 X94.643 Y110.624 E19.07664
G1 X92.924 Y109.565 E19.19416
G1 X91.398 Y108.217 E19.31267
G1 X90.144 Y106.663 E19.4289
G1 X89.159 Y104.901 E19.5464
G1 X88.485 Y102.993 E19.66418
G1 X88.145 Y101.011 E19.78122
G1 X88.145 Y98.989 E19.89891
G1 X88.485 Y97.005 E20.01608
G1 X89.159 Y95.099 E20.13375
G1 X90.144 Y93.337 E20.25124
G1 X91.414 Y91.764 E20.36892
G1 X92.921 Y90.437 E20.48579
G1 X94.643 Y89.376 E20.60352
G1 X96.516 Y88.624 E20.721
G1 X98.487 Y88.199 E20.83835
G1 X100.509 Y88.113 E20.95615
G1 X102.505 Y88.37 E21.07329
M207 X30
G0 F3600 X102.484 Y88.467
G0 X101.797 Y97.053
G0 X101.745 Y97.138
M207 X20
G1 F1800 X101.232 Y96.884 E21.10661
G1 X100.689 Y96.721 E21.13961
G1 X100.125 Y96.651 E21.17269
G1 X99.557 Y96.678 E21.20578
G1 X99.001 Y96.801 E21.23893
G1 X98.476 Y97.016 E21.27195
G1 X97.995 Y97.316 E21.30495
G1 X97.58 Y97.68 E21.33708
G1 X97.224 Y98.123 E21.37015
G1 X96.945 Y98.618 E21.40323
G1 X96.756 Y99.155 E21.43636
G1 X96.66 Y99.716 E21.46949
G1 X96.66 Y100.284 E21.50255
G1 X96.756 Y100.845 E21.53568
G1 X96.945 Y101.382 E21.56882
G1 X97.224 Y101.877 E21.60189
G1 X97.58 Y102.32 E21.63497
G1 X98.007 Y102.695 E21.66804
G1 X98.491 Y102.993 E21.70113
G1 X99.018 Y103.205 E21.73419
G1 X99.573 Y103.325 E21.76724
G1 X100.143 Y103.35 E21.80045
G1 X100.706 Y103.276 E21.8335
G1 X101.249 Y103.111 E21.86653
G1 X101.757 Y102.855 E21.89964
G1 X102.215 Y102.516 E21.93281
G1 X102.61 Y102.105 E21.96599
G1 X102.927 Y101.634 E21.99903
G1 X103.161 Y101.117 E22.03207
G1 X103.304 Y100.567 E22.06514
G1 X103.352 Y100 E22.09826
G1 X103.306 Y99.455 E22.1301
G1 X103.164 Y98.892 E22.16389
G1 X102.928 Y98.367 E22.1974
G1 X102.614 Y97.902 E22.23006
G1 X102.235 Y97.506 E22.26196
G1 X101.745 Y97.138 E22.29763
M207 X30
G0 F3600 X101.797 Y97.053
G0 X106.005 Y96.515
G0 X106.075 Y96.585
M207 X20
G1 F1800 X106.075 Y103.415 E22.69517
G1 X110.675 Y103.415 E22.96291
G1 X110.675 Y96.585 E23.36046
G1 X106.075 Y96.585 E23.6282
M207 X30
G0 F3600 X106.475 Y96.985
M207 X20
;TYPE:WALL-OUTER
G1 F1800 X106.475 Y103.015 E23.97918
G1 X110.275 Y103.015 E24.20036
G1 X110.275 Y96.985 E24.55134
G1 X106.475 Y96.985 E24.77251
M207 X30
G0 F3600 X106.475 Y97.185
G0 X105.975 Y97.185
G0 X101.756 Y97.033
G0 X101.534 Y97.48
M207 X20
G1 F1800 X101.085 Y97.257 E24.80169
G1 X100.606 Y97.114 E24.83079
G1 X100.11 Y97.052 E24.85989
G1 X99.61 Y97.076 E24.88902
G1 X99.121 Y97.184 E24.91817
G1 X98.659 Y97.373 E24.94722
G1 X98.234 Y97.638 E24.97638
G1 X97.87 Y97.958 E25.00459
G1 X97.556 Y98.348 E25.03373
G1 X97.311 Y98.784 E25.06284
G1 X97.145 Y99.256 E25.09196
G1 X97.06 Y99.75 E25.12114
G1 X97.06 Y100.25 E25.15024
G1 X97.145 Y100.744 E25.17942
G1 X97.311 Y101.216 E25.20854
G1 X97.556 Y101.652 E25.23765
G1 X97.87 Y102.042 E25.26679
G1 X98.246 Y102.372 E25.29591
G1 X98.672 Y102.635 E25.32505
G1 X99.136 Y102.821 E25.35415
G1 X99.625 Y102.927 E25.38327
G1 X100.126 Y102.949 E25.41246
G1 X100.621 Y102.884 E25.44152
G1 X101.1 Y102.738 E25.47066
G1 X101.547 Y102.513 E25.49979
G1 X101.95 Y102.215 E25.52896
G1 X102.297 Y101.853 E25.55815
G1 X102.576 Y101.439 E25.58721
G1 X102.782 Y100.983 E25.61633
G1 X102.908 Y100.499 E25.64544
G1 X102.951 Y100 E25.6746
G1 X102.91 Y99.521 E25.70258
G1 X102.785 Y99.024 E25.73241
G1 X102.577 Y98.563 E25.76185
G1 X102.301 Y98.154 E25.79056
G1 X101.969 Y97.806 E25.81856
G1 X101.534 Y97.48 E25.8502
M207 X30
G0 F3600 X101.355 Y97.391
G0 X101.577 Y96.944
G0 X102.484 Y88.467
G0 X102.591 Y87.977
M207 X20
G1 F1800 X104.582 Y88.586 E25.97139
G1 X106.449 Y89.528 E26.0931
G1 X108.129 Y90.77 E26.21471
G1 X109.566 Y92.269 E26.33557
G1 X110.74 Y94.005 E26.45755
G1 X111.595 Y95.899 E26.57851
G1 X112.123 Y97.924 E26.70031
G1 X112.297 Y99.967 E26.81966
G1 X112.297 Y100.033 E26.8235
G1 X112.125 Y102.048 E26.94121
G1 X111.597 Y104.096 E27.06431
G1 X110.74 Y105.995 E27.18558
G1 X109.566 Y107.731 E27.30756
G1 X108.129 Y109.229 E27.42838
G1 X106.433 Y110.48 E27.55105
G1 X104.582 Y111.414 E27.67172
G1 X102.582 Y112.024 E27.79343
G1 X100.526 Y112.288 E27.91408
G1 X98.439 Y112.2 E28.03566
G1 X96.399 Y111.76 E28.15713
G1 X94.459 Y110.981 E28.27881
G1 X92.686 Y109.889 E28.40002
G1 X91.111 Y108.497 E28.52236
G1 X89.811 Y106.887 E28.64281
G1 X88.793 Y105.066 E28.76424
G1 X88.097 Y103.096 E28.88585
G1 X87.745 Y101.044 E29.00703
G1 X87.745 Y98.956 E29.12856
G1 X88.097 Y96.904 E29.24974
G1 X88.793 Y94.934 E29.37135
G1 X89.811 Y93.113 E29.49278
G1 X91.124 Y91.487 E29.61443
G1 X92.686 Y90.111 E29.73559
G1 X94.459 Y89.019 E29.85679
G1 X96.399 Y88.24 E29.97847
G1 X98.439 Y87.8 E30.09994
G1 X100.526 Y87.712 E30.22152
G1 X102.591 Y87.977 E30.3427
M207 X30
G0 F3600 X102.782 Y88.035
G0 X102.418 Y88.751
M207 X20
;TYPE:SKIN
G1 F1800 X104.285 Y89.322 E30.45634
G1 X106.031 Y90.204 E30.5702
G1 X107.609 Y91.369 E30.68436
G1 X108.952 Y92.769 E30.79728
G1 X110.047 Y94.388 E30.91105
G1 X110.845 Y96.158 E31.02406
G1 X110.855 Y96.195 E31.02629
G1 X105.685 Y96.195 E31.32721
G1 X105.685 Y103.805 E31.77015
G1 X110.856 Y103.805 E32.07113
G1 X110.849 Y103.833 E32.07281
G1 X110.047 Y105.612 E32.18639
G1 X108.952 Y107.231 E32.30016
G1 X107.607 Y108.632 E32.4132
G1 X106.019 Y109.802 E32.52801
G1 X104.284 Y110.679 E32.64116
G1 X102.41 Y111.25 E32.75519
G1 X100.499 Y111.495 E32.86733
G1 X98.539 Y111.413 E32.98151
G1 X96.628 Y111.001 E33.0953
G1 X94.819 Y110.274 E33.20877
G1 X93.154 Y109.249 E33.32258
G1 X91.684 Y107.95 E33.43676
G1 X90.47 Y106.446 E33.54926
G1 X89.515 Y104.737 E33.66321
G1 X88.863 Y102.891 E33.77716
G1 X88.535 Y100.979 E33.89008
G1 X88.535 Y99.02 E34.0041
G1 X88.863 Y97.107 E34.11707
G1 X89.515 Y95.263 E34.23091
G1 X90.47 Y93.555 E34.34481
G1 X91.697 Y92.035 E34.45851
G1 X93.155 Y90.751 E34.57159
G1 X94.819 Y89.726 E34.68535
G1 X96.628 Y88.999 E34.79883
G1 X98.539 Y88.587 E34.91261
G1 X100.499 Y88.505 E35.02679
G1 X102.418 Y88.751 E35.1394
M207 X30
G0 F3600 X100.769 Y96.338
M207 X20
G1 F1800 X100.14 Y96.259 E35.1763
G1 X99.505 Y96.29 E35.21331
G1 X98.884 Y96.427 E35.25032
G1 X98.298 Y96.667 E35.28718
G1 X97.761 Y97.002 E35.32402
G1 X97.297 Y97.409 E35.35994
G1 X96.9 Y97.904 E35.39688
G1 X96.588 Y98.456 E35.43378
G1 X96.377 Y99.057 E35.47086
G1 X96.27 Y99.683 E35.50782
G1 X96.27 Y100.317 E35.54473
G1 X96.377 Y100.943 E35.58169
G1 X96.588 Y101.544 E35.61876
G1 X96.9 Y102.096 E35.65567
G1 X97.297 Y102.591 E35.6926
G1 X97.775 Y103.009 E35.72956
G1 X98.315 Y103.342 E35.76649
G1 X98.903 Y103.579 E35.80339
G1 X99.523 Y103.713 E35.84031
G1 X100.16 Y103.742 E35.87743
G1 X100.788 Y103.658 E35.9143
G1 X101.395 Y103.474 E35.95122
G1 X101.962 Y103.188 E35.98819
G1 X102.474 Y102.81 E36.02523
G1 X102.914 Y102.351 E36.06224
G1 X103.269 Y101.825 E36.09917
G1 X103.53 Y101.248 E36.13603
G1 X103.69 Y100.633 E36.17302
G1 X103.744 Y100 E36.21
G1 X103.692 Y99.391 E36.24558
G1 X103.534 Y98.763 E36.28327
G1 X103.27 Y98.176 E36.32073
G1 X102.918 Y97.656 E36.35728
G1 X102.495 Y97.213 E36.39293
G1 X101.95 Y96.805 E36.43256
G1 X101.376 Y96.52 E36.46986
G1 X100.769 Y96.338 E36.50674
M207 X30
G0 F3600 X110.703 Y96.557
G0 X111.065 Y96.999
M207 X20
G1 F1800 X111.343 Y98.063 E36.57075
G1 X111.507 Y100.011 E36.68454
G1 X111.343 Y101.915 E36.79577
G1 X111.065 Y102.995 E36.86068
G1 X111.065 Y96.999 E37.20968
M207 X30
G0 F3600 X106.936 Y91.097
M207 X20
G1 F1800 X108.997 Y93.158 E37.37933
G1 X109.067 Y93.228
M207 X30
G0 F3600 X110.005 Y94.731
M207 X20
G1 F1800 X105.322 Y90.048 E37.76481
G1 X105.252 Y89.978
M207 X30
G0 F3600 X104.188 Y89.48
M207 X20
G1 F1800 X110.468 Y95.76 E38.28175
G1 X110.538 Y95.83
M207 X30
G0 F3600 X110.157 Y96.015
M207 X20
G1 F1800 X103.373 Y89.231 E38.84017
G1 X103.303 Y89.161
M207 X30
G0 F3600 X102.558 Y88.982
M207 X20
G1 F1800 X109.591 Y96.015 E39.41909
G1 X109.661 Y96.085
M207 X30
G0 F3600 X109.025 Y96.015
M207 X20
G1 F1800 X101.873 Y88.862 E40.00784
G1 X101.803 Y88.792
M207 X30
G0 F3600 X101.225 Y88.78
M207 X20
G1 F1800 X108.46 Y96.015 E40.60339
G1 X108.53 Y96.085
M207 X30
G0 F3600 X107.894 Y96.015
M207 X20
G1 F1800 X100.576 Y88.696 E41.20581
G1 X100.506 Y88.626
M207 X30
G0 F3600 X100.019 Y88.705
M207 X20
G1 F1800 X107.328 Y96.015 E41.80749
G1 X107.398 Y96.085
M207 X30
G0 F3600 X106.763 Y96.015
M207 X20
