;FLAVOR:Repetier
;TIME:3527
;Generated with Cura_SteamEngine 3.4.1
M104 S212
M109 S212
M82 ;absolute extrusion mode
G28 ;Home
G1 Z15.0 F6000 ;Move the platform down 15mm
;Prime the extruder
G92 E0
G1 F200 E3
G92 E0
G92 E0
G1 F1200 E-0.5
;LAYER_COUNT:285
;LAYER:0
M107
M202 X5000 Y5000
M207 X30
G0 F3600 X74.082 Y74.686 Z0.35
M201 X500 Y500
M207 X20
;TYPE:SKIRT
G1 F1200 E0
G1 F1800 X74.716 Y74.08 E0.05105
G1 X76.166 Y72.805 E0.16343
G1 X76.884 Y72.227 E0.21708
G1 X77.607 Y71.74 E0.26782
G1 X79.276 Y70.712 E0.38192
G1 X80.08 Y70.263 E0.43552
G1 X80.889 Y69.899 E0.48715
G1 X82.699 Y69.173 E0.60066
G1 X83.567 Y68.868 E0.65421
G1 X84.409 Y68.649 E0.70485
G1 X86.3 Y68.241 E0.81745
G1 X87.208 Y68.087 E0.87105
G1 X88.085 Y68.013 E0.92228
G1 X90.036 Y67.93 E1.03594
G1 X90.957 Y67.93 E1.08955
G1 X91.834 Y68.006 E1.14079
G1 X93.762 Y68.253 E1.25392
G1 X94.669 Y68.409 E1.30749
G1 X95.521 Y68.632 E1.35875
G1 X97.394 Y69.206 E1.47278
G1 X98.262 Y69.514 E1.52638
G1 X99.057 Y69.874 E1.57718
G1 X100.796 Y70.75 E1.69052
G1 X101.599 Y71.2 E1.74409
G1 X102.334 Y71.697 E1.79574
G1 X103.897 Y72.854 E1.90892
G1 X104.612 Y73.434 E1.96251
G1 X105.253 Y74.05 E2.01426
G1 X106.615 Y75.475 E2.12899
G1 X107.221 Y76.168 E2.18258
G1 X107.739 Y76.871 E2.2334
G1 X108.813 Y78.463 E2.34518
G1 X109.295 Y79.248 E2.3988
G1 X109.679 Y80.011 E2.44851
G1 X110.483 Y81.783 E2.56177
G1 X110.826 Y82.637 E2.61534
G1 X111.089 Y83.494 E2.66752
G1 X111.582 Y85.389 E2.78149
G1 X111.774 Y86.289 E2.83505
G1 X111.887 Y87.182 E2.88744
G1 X112.05 Y89.147 E3.00221
G1 X112.086 Y90.067 E3.0558
G1 X112.048 Y90.923 E3.10567
G1 X111.884 Y92.848 E3.21812
G1 X111.766 Y93.761 E3.27171
G1 X111.584 Y94.605 E3.32196
G1 X111.103 Y96.463 E3.43367
G1 X110.833 Y97.343 E3.48725
G1 X110.542 Y98.077 E3.53321
G1 X110.041 Y99.215 E3.60558
G1 X109.613 Y100.08 E3.66175
G1 X108.939 Y101.297 E3.74273
G1 X108.407 Y102.158 E3.80164
G1 X107.688 Y103.206 E3.87561
G1 X107.134 Y103.942 E3.92923
G1 X106.603 Y104.54 E3.97578
G1 X105.253 Y105.95 E4.0894
G1 X104.588 Y106.586 E4.14296
G1 X103.892 Y107.147 E4.19499
G1 X102.303 Y108.32 E4.30995
G1 X101.54 Y108.834 E4.3635
G1 X100.786 Y109.254 E4.41373
G1 X99.079 Y110.116 E4.52504
G1 X98.24 Y110.495 E4.57862
G1 X97.411 Y110.788 E4.6298
G1 X95.534 Y111.364 E4.74408
G1 X94.643 Y111.595 E4.79766
G1 X93.776 Y111.743 E4.84885
G1 X91.839 Y111.992 E4.96252
G1 X90.921 Y112.07 E5.01615
G1 X90.041 Y112.07 E5.06737
G1 X88.093 Y111.988 E5.18085
G1 X87.176 Y111.909 E5.23442
G1 X86.3 Y111.758 E5.28616
G1 X84.403 Y111.348 E5.39913
G1 X83.512 Y111.114 E5.45275
G1 X82.635 Y110.8 E5.50697
G1 X80.742 Y110.027 E5.62598
G1 X79.905 Y109.643 E5.67958
G1 X79.244 Y109.272 E5.7237
G1 X78.214 Y108.646 E5.79386
G1 X77.355 Y108.065 E5.85422
G1 X76.216 Y107.21 E5.93711
G1 X75.496 Y106.618 E5.99137
G1 X74.61 Y105.822 E6.06069
G1 X73.952 Y105.178 E6.11428
G1 X73.448 Y104.598 E6.15901
G1 X72.234 Y103.095 E6.27146
G1 X71.687 Y102.354 E6.32507
G1 X71.225 Y101.601 E6.37649
G1 X70.277 Y99.903 E6.48968
G1 X69.863 Y99.081 E6.54325
G1 X69.532 Y98.251 E6.59526
G1 X68.875 Y96.382 E6.71058
G1 X68.608 Y95.501 E6.76416
G1 X68.427 Y94.654 E6.81457
G1 X68.104 Y92.765 E6.92612
G1 X67.988 Y91.851 E6.97974
G1 X67.952 Y90.978 E7.0306
G1 X67.952 Y89.026 E7.14422
G1 X67.992 Y88.106 E7.19782
G1 X68.106 Y87.226 E7.24946
G1 X68.44 Y85.288 E7.36393
G1 X68.636 Y84.388 E7.41754
G1 X68.894 Y83.549 E7.46863
G1 X69.539 Y81.728 E7.58108
G1 X69.884 Y80.874 E7.63469
G1 X70.274 Y80.102 E7.68503
G1 X71.218 Y78.41 E7.7978
G1 X71.701 Y77.627 E7.85135
G1 X72.232 Y76.911 E7.90324
G1 X73.473 Y75.376 E8.01813
G1 X74.082 Y74.686 E8.0717
M207 X30
G0 F3600 X74.382 Y74.951
M207 X20
G1 F1800 X74.981 Y74.38 E8.11986
G1 X76.431 Y73.105 E8.23225
G1 X77.135 Y72.539 E8.28483
G1 X77.817 Y72.08 E8.33267
G1 X79.486 Y71.052 E8.44677
G1 X80.275 Y70.613 E8.49932
G1 X81.038 Y70.27 E8.54801
G1 X82.848 Y69.544 E8.66152
G1 X83.7 Y69.245 E8.71408
G1 X84.494 Y69.04 E8.76181
G1 X86.385 Y68.632 E8.87441
G1 X87.275 Y68.481 E8.92695
G1 X88.102 Y68.412 E8.97525
G1 X90.053 Y68.329 E9.08892
G1 X90.957 Y68.331 E9.14153
G1 X91.783 Y68.403 E9.18979
G1 X93.711 Y68.65 E9.30293
G1 X94.601 Y68.804 E9.3555
G1 X95.404 Y69.015 E9.40383
G1 X97.277 Y69.589 E9.51785
G1 X98.128 Y69.891 E9.57041
G1 X98.877 Y70.232 E9.61831
G1 X100.616 Y71.108 E9.73165
G1 X101.404 Y71.549 E9.78421
G1 X102.096 Y72.019 E9.8329
G1 X103.659 Y73.176 E9.94608
G1 X104.36 Y73.745 E9.99864
G1 X104.964 Y74.326 E10.04742
G1 X106.326 Y75.751 E10.16215
G1 X106.92 Y76.431 E10.21471
G1 X107.408 Y77.095 E10.26267
G1 X108.482 Y78.687 E10.37445
G1 X108.953 Y79.457 E10.42698
G1 X109.315 Y80.177 E10.47389
G1 X110.119 Y81.949 E10.58715
G1 X110.455 Y82.787 E10.6397
G1 X110.701 Y83.595 E10.68886
G1 X111.194 Y85.49 E10.80283
G1 X111.383 Y86.373 E10.85539
G1 X111.488 Y87.215 E10.90478
G1 X111.651 Y89.18 E11.01955
G1 X111.686 Y90.082 E11.07209
G1 X111.649 Y90.889 E11.11911
G1 X111.485 Y92.814 E11.23156
G1 X111.369 Y93.709 E11.28409
G1 X111.196 Y94.504 E11.33144
G1 X110.715 Y96.362 E11.44315
G1 X110.451 Y97.226 E11.49574
G1 X110.176 Y97.916 E11.53897
G1 X109.675 Y99.054 E11.61135
G1 X109.263 Y99.886 E11.66538
G1 X108.589 Y101.103 E11.74636
G1 X108.077 Y101.931 E11.80302
G1 X107.358 Y102.979 E11.877
G1 X106.814 Y103.701 E11.92961
G1 X106.315 Y104.263 E11.97336
G1 X104.965 Y105.673 E12.08698
G1 X104.312 Y106.297 E12.13955
G1 X103.655 Y106.825 E12.18861
G1 X102.066 Y107.998 E12.30357
G1 X101.316 Y108.502 E12.35616
G1 X100.606 Y108.897 E12.40346
G1 X98.899 Y109.759 E12.51476
G1 X98.075 Y110.13 E12.56736
G1 X97.293 Y110.405 E12.61561
G1 X95.416 Y110.981 E12.72989
G1 X94.542 Y111.208 E12.78245
G1 X93.725 Y111.347 E12.83068
G1 X91.788 Y111.596 E12.94436
G1 X90.888 Y111.671 E12.99692
G1 X90.058 Y111.67 E13.04523
G1 X88.11 Y111.588 E13.15872
G1 X87.21 Y111.51 E13.2113
G1 X86.384 Y111.367 E13.26009
G1 X84.487 Y110.957 E13.37306
G1 X83.614 Y110.727 E13.4256
G1 X82.786 Y110.43 E13.4768
G1 X80.893 Y109.657 E13.59582
G1 X80.073 Y109.279 E13.64837
G1 X79.451 Y108.93 E13.68989
G1 X78.421 Y108.304 E13.76004
G1 X77.596 Y107.745 E13.81805
G1 X76.457 Y106.89 E13.90094
G1 X75.763 Y106.321 E13.95318
G1 X74.877 Y105.525 E14.0225
G1 X74.233 Y104.892 E14.07506
G1 X73.759 Y104.346 E14.11715
G1 X72.545 Y102.843 E14.2296
G1 X72.009 Y102.116 E14.28218
G1 X71.574 Y101.406 E14.33064
G1 X70.626 Y99.708 E14.44383
G1 X70.221 Y98.901 E14.49639
G1 X69.909 Y98.119 E14.54539
G1 X69.252 Y96.25 E14.66071
G1 X68.991 Y95.385 E14.71329
G1 X68.821 Y94.586 E14.76084
G1 X68.498 Y92.697 E14.87239
G1 X68.385 Y91.801 E14.92495
G1 X68.352 Y90.978 E14.97289
G1 X68.352 Y89.026 E15.08651
G1 X68.392 Y88.124 E15.13906
G1 X68.5 Y87.294 E15.18778
G1 X68.834 Y85.356 E15.30225
G1 X69.027 Y84.473 E15.35485
G1 X69.271 Y83.682 E15.40303
G1 X69.916 Y81.861 E15.51548
G1 X70.255 Y81.024 E15.56804
G1 X70.624 Y80.297 E15.61549
G1 X71.568 Y78.605 E15.72827
G1 X72.042 Y77.837 E15.7808
G1 X72.543 Y77.162 E15.82973
G1 X73.784 Y75.627 E15.94462
G1 X74.382 Y74.951 E15.99715
M207 X30
G1 F1200 E15.49715
G0 F3600 X82.68 Y80.293
G0 X83.527 Y81.257
G0 X95.505 Y86.212
G0 X95.575 Y86.282
M207 X20
;TYPE:WALL-INNER
G1 F1200 E15.99715
G1 F1800 X95.575 Y93.718 E16.42997
G1 X99.908 Y93.718 E16.68217
G1 X100.175 Y93.718 E16.69771
G1 X100.175 Y93.625 E16.70312
G1 X100.175 Y92.455 E16.77122
G1 X100.175 Y87.546 E17.05695
G1 X100.175 Y86.37 E17.1254
G1 X100.175 Y86.282 E17.13052
G1 X99.908 Y86.282 E17.14606
G1 X95.575 Y86.282 E17.39827
M207 X30
G0 F3600 X95.505 Y86.212
G0 X99.169 Y86.282
G0 X100.134 Y86.301
G0 X100.225 Y86.26
M207 X20
G1 F1800 X100.275 Y86.37 E17.40047
G1 X100.57 Y87.508 E17.44344
G1 X100.742 Y88.172 E17.48336
G1 X100.897 Y90.011 E17.59078
G1 X100.742 Y91.828 E17.69692
G1 X100.57 Y92.493 E17.7369
G1 X100.277 Y93.625 E17.77981
G1 X100.226 Y93.739 E17.78206
G1 X100.117 Y93.982 E17.79194
G1 X99.514 Y95.316 E17.87715
G1 X98.478 Y96.848 E17.9848
G1 X97.202 Y98.179 E18.09212
G1 X95.7 Y99.286 E18.20072
G1 X94.063 Y100.112 E18.30744
G1 X92.287 Y100.654 E18.41552
G1 X90.466 Y100.888 E18.52239
G1 X88.614 Y100.809 E18.63028
G1 X86.806 Y100.42 E18.73792
G1 X85.073 Y99.718 E18.84676
G1 X83.519 Y98.761 E18.95298
G1 X82.121 Y97.527 E19.06152
G1 X80.972 Y96.103 E19.16802
G1 X80.07 Y94.489 E19.27564
G1 X79.453 Y92.743 E19.38342
G1 X79.141 Y90.925 E19.49079
G1 X79.141 Y89.075 E19.59847
G1 X79.453 Y87.257 E19.70583
G1 X80.07 Y85.511 E19.81362
G1 X80.972 Y83.897 E19.92123
G1 X82.136 Y82.456 E20.02905
G1 X83.516 Y81.241 E20.13607
G1 X85.094 Y80.269 E20.24395
G1 X86.809 Y79.58 E20.35152
G1 X88.614 Y79.191 E20.459
G1 X90.466 Y79.112 E20.56689
G1 X92.293 Y79.347 E20.67411
G1 X94.065 Y79.888 E20.78195
G1 X95.711 Y80.719 E20.88927
G1 X97.204 Y81.822 E20.99731
G1 X98.478 Y83.152 E21.10451
G1 X99.514 Y84.684 E21.21216
G1 X100.116 Y86.017 E21.29729
G1 X100.225 Y86.26 E21.30716
M207 X30
G0 F3600 X100.134 Y86.301
G0 X95.578 Y91.239
G0 X93.855 Y93.109
G0 X93.777 Y93.047
M207 X20
G1 F1800 X94.248 Y92.339 E21.35665
G1 X94.575 Y91.616 E21.40284
G1 X94.784 Y90.804 E21.45164
G1 X94.846 Y90.063 E21.49492
G1 X94.847 Y89.946 E21.50173
G1 X94.784 Y89.195 E21.5456
G1 X94.575 Y88.384 E21.59435
G1 X94.236 Y87.633 E21.64231
G1 X93.775 Y86.952 E21.69017
G1 X93.206 Y86.358 E21.73805
G1 X92.543 Y85.868 E21.78603
G1 X91.81 Y85.498 E21.83383
G1 X91.022 Y85.257 E21.88179
G1 X90.206 Y85.152 E21.92968
G1 X89.384 Y85.187 E21.97756
G1 X88.578 Y85.36 E22.02555
G1 X87.816 Y85.668 E22.07338
G1 X87.115 Y86.099 E22.12128
G1 X86.497 Y86.642 E22.16916
G1 X85.981 Y87.283 E22.21706
G1 X85.578 Y88 E22.26493
G1 X85.305 Y88.777 E22.31287
G1 X85.165 Y89.589 E22.36083
G1 X85.165 Y90.411 E22.40867
G1 X85.305 Y91.223 E22.45663
G1 X85.578 Y92 E22.50457
G1 X85.981 Y92.717 E22.55244
G1 X86.497 Y93.358 E22.60034
G1 X87.115 Y93.901 E22.64822
G1 X87.816 Y94.332 E22.69612
G1 X88.578 Y94.64 E22.74396
G1 X89.384 Y94.813 E22.79194
G1 X90.206 Y94.848 E22.83983
G1 X91.022 Y94.743 E22.88772
G1 X91.81 Y94.502 E22.93568
G1 X92.543 Y94.132 E22.98347
G1 X93.206 Y93.643 E23.03142
G1 X93.777 Y93.047 E23.07946
M207 X30
G0 F3600 X93.464 Y92.796
M207 X20
;TYPE:WALL-OUTER
G1 F1800 X93.897 Y92.145 E23.12497
G1 X94.196 Y91.483 E23.16725
G1 X94.388 Y90.737 E23.21209
G1 X94.446 Y90.044 E23.25256
G1 X94.447 Y89.96 E23.25745
G1 X94.388 Y89.262 E23.29823
G1 X94.196 Y88.517 E23.34301
G1 X93.885 Y87.829 E23.38695
G1 X93.463 Y87.204 E23.43085
G1 X92.941 Y86.659 E23.47477
G1 X92.333 Y86.21 E23.51876
G1 X91.66 Y85.87 E23.56265
G1 X90.937 Y85.649 E23.60666
G1 X90.189 Y85.553 E23.65055
G1 X89.435 Y85.585 E23.69448
G1 X88.696 Y85.744 E23.73847
G1 X87.997 Y86.026 E23.78235
G1 X87.354 Y86.422 E23.8263
G1 X86.787 Y86.92 E23.87022
G1 X86.313 Y87.508 E23.91418
G1 X85.944 Y88.166 E23.9581
G1 X85.693 Y88.878 E24.00204
G1 X85.565 Y89.623 E24.04604
G1 X85.565 Y90.377 E24.08992
G1 X85.693 Y91.122 E24.13392
G1 X85.944 Y91.834 E24.17786
G1 X86.313 Y92.492 E24.22177
G1 X86.787 Y93.08 E24.26573
G1 X87.354 Y93.578 E24.30966
G1 X87.997 Y93.974 E24.35361
G1 X88.696 Y94.256 E24.39748
G1 X89.435 Y94.415 E24.44148
G1 X90.189 Y94.447 E24.48541
G1 X90.937 Y94.351 E24.5293
G1 X91.66 Y94.13 E24.57331
G1 X92.333 Y93.79 E24.61719
G1 X92.941 Y93.341 E24.66119
G1 X93.464 Y92.796 E24.70515
M207 X30
G0 F3600 X93.574 Y92.63
G0 X93.989 Y92.908
G0 X94.612 Y91.629
G0 X95.563 Y87.572
G0 X95.547 Y86.254
G0 X95.975 Y86.182
G0 X95.975 Y86.682
M207 X20
G1 F1800 X95.975 Y93.318 E25.0914
G1 X99.775 Y93.318 E25.31258
G1 X99.775 Y86.682 E25.69883
G1 X95.975 Y86.682 E25.92001
M207 X30
G0 F3600 X95.975 Y86.882
G0 X95.475 Y86.882
G0 X92.272 Y79.444
G0 X92.379 Y78.954
M207 X20
G1 F1800 X94.211 Y79.514 E26.03151
G1 X95.925 Y80.379 E26.14326
G1 X97.469 Y81.52 E26.25501
G1 X98.788 Y82.897 E26.36599
G1 X99.867 Y84.493 E26.47813
G1 X100.652 Y86.232 E26.58918
G1 X101.139 Y88.109 E26.70205
G1 X101.297 Y89.967 E26.81058
G1 X101.297 Y90.033 E26.81443
G1 X101.139 Y91.891 E26.92296
G1 X100.654 Y93.763 E27.03552
G1 X99.867 Y95.507 E27.14689
G1 X98.788 Y97.103 E27.25902
G1 X97.469 Y98.479 E27.36996
G1 X95.91 Y99.628 E27.48269
G1 X94.209 Y100.486 E27.59358
G1 X92.373 Y101.047 E27.70532
G1 X90.483 Y101.289 E27.81622
G1 X88.566 Y101.208 E27.9279
G1 X86.687 Y100.803 E28.03978
G1 X84.89 Y100.076 E28.15261
G1 X83.281 Y99.085 E28.2626
G1 X81.834 Y97.807 E28.37497
G1 X80.639 Y96.327 E28.48569
G1 X79.704 Y94.654 E28.59724
G1 X79.065 Y92.844 E28.70897
G1 X78.741 Y90.958 E28.82035
G1 X78.741 Y89.042 E28.93187
G1 X79.065 Y87.156 E29.04326
G1 X79.704 Y85.346 E29.15498
G1 X80.639 Y83.673 E29.26653
G1 X81.846 Y82.179 E29.37833
G1 X83.281 Y80.915 E29.48963
G1 X84.91 Y79.912 E29.60098
G1 X86.692 Y79.196 E29.71276
G1 X88.566 Y78.792 E29.82434
G1 X90.483 Y78.711 E29.93602
G1 X92.379 Y78.954 E30.04728
M207 X30
G0 F3600 X92.57 Y79.012
G0 X92.206 Y79.728
M207 X20
;TYPE:SKIN
G1 F1800 X93.914 Y80.25 E30.15124
G1 X95.507 Y81.055 E30.25512
G1 X96.952 Y82.121 E30.35964
G1 X98.171 Y83.394 E30.46223
G1 X99.173 Y84.875 E30.56631
G1 X99.632 Y85.892 E30.63125
G1 X95.185 Y85.892 E30.89009
G1 X95.185 Y89.309 E31.08898
G1 X95.17 Y89.129 E31.09949
G1 X94.944 Y88.254 E31.15209
G1 X94.577 Y87.442 E31.20396
G1 X94.079 Y86.706 E31.25568
G1 X93.465 Y86.064 E31.30739
G1 X92.748 Y85.535 E31.35925
G1 X91.956 Y85.135 E31.41089
G1 X91.104 Y84.875 E31.46274
G1 X90.223 Y84.76 E31.51446
G1 X89.335 Y84.799 E31.56619
G1 X88.463 Y84.986 E31.6181
G1 X87.64 Y85.319 E31.66978
G1 X86.883 Y85.785 E31.72152
G1 X86.214 Y86.371 E31.77328
G1 X85.657 Y87.064 E31.82503
G1 X85.221 Y87.838 E31.87674
G1 X84.926 Y88.679 E31.92861
G1 X84.775 Y89.556 E31.98041
G1 X84.775 Y90.444 E32.0321
G1 X84.926 Y91.321 E32.08389
G1 X85.221 Y92.162 E32.13577
G1 X85.657 Y92.936 E32.18748
G1 X86.214 Y93.629 E32.23923
G1 X86.883 Y94.215 E32.29099
G1 X87.64 Y94.681 E32.34273
G1 X88.463 Y95.014 E32.39441
G1 X89.335 Y95.201 E32.44632
G1 X90.223 Y95.24 E32.49805
G1 X91.104 Y95.125 E32.54977
G1 X91.956 Y94.865 E32.60161
G1 X92.748 Y94.465 E32.65326
G1 X93.465 Y93.937 E32.70509
G1 X94.083 Y93.292 E32.75708
G1 X94.591 Y92.528 E32.81048
G1 X94.944 Y91.746 E32.86042
G1 X95.17 Y90.87 E32.91308
G1 X95.185 Y90.691 E32.92353
G1 X95.185 Y94.108 E33.12242
G1 X99.632 Y94.108 E33.38126
G1 X99.174 Y95.124 E33.44613
G1 X98.174 Y96.603 E33.55004
G1 X96.947 Y97.882 E33.65321
G1 X95.497 Y98.95 E33.75803
G1 X93.911 Y99.751 E33.86144
G1 X92.201 Y100.273 E33.96551
G1 X90.457 Y100.496 E34.06785
G1 X88.666 Y100.421 E34.17218
G1 X86.913 Y100.044 E34.27655
G1 X85.253 Y99.371 E34.38081
G1 X83.749 Y98.445 E34.48361
G1 X82.407 Y97.26 E34.58782
G1 X81.298 Y95.886 E34.69059
G1 X80.426 Y94.325 E34.79466
G1 X79.831 Y92.641 E34.89862
G1 X79.531 Y90.893 E35.00185
G1 X79.531 Y89.107 E35.10581
G1 X79.831 Y87.359 E35.20904
G1 X80.426 Y85.675 E35.31299
G1 X81.298 Y84.115 E35.41701
G1 X82.419 Y82.727 E35.52086
G1 X83.75 Y81.555 E35.62409
G1 X85.27 Y80.619 E35.72799
G1 X86.921 Y79.955 E35.83156
G1 X88.666 Y79.579 E35.93546
G1 X90.456 Y79.504 E36.03974
G1 X92.206 Y79.728 E36.14243
M207 X30
G0 F3600 X95.29 Y81.148
M207 X20
G1 F1800 X98.828 Y84.685 E36.43362
G1 X98.898 Y84.755
M207 X30
G0 F3600 X98.722 Y85.711
M207 X20
G1 F1800 X93.244 Y80.233 E36.88454
G1 X93.174 Y80.163
M207 X30
G0 F3600 X92.43 Y79.985
M207 X20
G1 F1800 X98.157 Y85.711 E37.35591
G1 X98.227 Y85.781
M207 X30
G0 F3600 X97.591 Y85.711
M207 X20
G1 F1800 X91.728 Y79.848 E37.83852
G1 X91.658 Y79.778
M207 X30
G0 F3600 X91.079 Y79.765
M207 X20
G1 F1800 X97.025 Y85.711 E38.32797
G1 X97.095 Y85.781
M207 X30
G0 F3600 X96.459 Y85.711
M207 X20
G1 F1800 X90.434 Y79.686 E38.82391
G1 X90.364 Y79.616
M207 X30
G0 F3600 X89.89 Y79.708
M207 X20
G1 F1800 X95.894 Y85.711 E39.31809
G1 X95.964 Y85.781
M207 X30
G0 F3600 X95.328 Y85.711
M207 X20
G1 F1800 X89.347 Y79.731 E39.81037
G1 X89.277 Y79.661
M207 X30
G0 F3600 X88.804 Y79.753
M207 X20
G1 F1800 X95.004 Y85.953 E40.32072
G1 X95.074 Y86.023
M207 X30
G0 F3600 X95.004 Y86.519
M207 X20
G1 F1800 X88.322 Y79.837 E40.87075
G1 X88.252 Y79.767
M207 X30
G0 F3600 X87.857 Y79.937
M207 X20
G1 F1800 X95.004 Y87.085 E41.45909
G1 X95.074 Y87.155
M207 X30
G0 F3600 X94.755 Y87.401
M207 X20
G1 F1800 X95.004 Y87.65 E41.47959
M207 X30
G0 F3600 X92.626 Y85.272
M207 X20
