;FLAVOR:Repetier
;TIME:3504
;Generated with Cura_SteamEngine 3.4.1
M104 S212
M109 S212
M82 ;absolute extrusion mode
G28 ;Home
G1 Z15.0 F6000 ;Move the platform down 15mm
;Prime the extruder
G92 E0
G1 F200 E3
G92 E0
G92 E0
G1 F1200 E-0.5
;LAYER_COUNT:285
;LAYER:0
M107
M202 X5000 Y5000
M207 X30
G0 F3600 X74.082 Y74.686 Z0.35
M201 X500 Y500
M207 X20
;TYPE:SKIRT
G1 F1200 E0
G1 F1800 X74.716 Y74.08 E0.05105
G1 X76.166 Y72.805 E0.16343
G1 X76.884 Y72.227 E0.21708
G1 X77.607 Y71.74 E0.26782
G1 X79.276 Y70.712 E0.38192
G1 X80.08 Y70.263 E0.43552
G1 X80.889 Y69.899 E0.48715
G1 X82.699 Y69.173 E0.60066
G1 X83.567 Y68.868 E0.65421
G1 X84.409 Y68.649 E0.70485
G1 X86.3 Y68.241 E0.81745
G1 X87.208 Y68.087 E0.87105
G1 X88.085 Y68.013 E0.92228
G1 X90.036 Y67.93 E1.03594
G1 X90.957 Y67.93 E1.08955
G1 X91.834 Y68.006 E1.14079
G1 X93.762 Y68.253 E1.25392
G1 X94.669 Y68.409 E1.30749
G1 X95.521 Y68.632 E1.35875
G1 X97.394 Y69.206 E1.47278
G1 X98.262 Y69.514 E1.52638
G1 X99.057 Y69.874 E1.57718
G1 X100.796 Y70.75 E1.69052
G1 X101.599 Y71.2 E1.74409
G1 X102.334 Y71.697 E1.79574
G1 X103.897 Y72.854 E1.90892
G1 X104.612 Y73.434 E1.96251
G1 X105.253 Y74.05 E2.01426
G1 X106.615 Y75.475 E2.12899
G1 X107.221 Y76.168 E2.18258
G1 X107.739 Y76.871 E2.2334
G1 X108.813 Y78.463 E2.34518
G1 X109.295 Y79.248 E2.3988
G1 X109.679 Y80.011 E2.44851
G1 X110.483 Y81.783 E2.56177
G1 X110.826 Y82.637 E2.61534
G1 X111.089 Y83.494 E2.66752
G1 X111.582 Y85.389 E2.78149
G1 X111.774 Y86.289 E2.83505
G1 X111.887 Y87.182 E2.88744
G1 X112.05 Y89.147 E3.00221
G1 X112.086 Y90.067 E3.0558
G1 X112.048 Y90.923 E3.10567
G1 X111.884 Y92.848 E3.21812
G1 X111.766 Y93.761 E3.27171
G1 X111.584 Y94.605 E3.32196
G1 X111.103 Y96.463 E3.43367
G1 X110.833 Y97.343 E3.48725
G1 X110.542 Y98.077 E3.53321
G1 X110.041 Y99.215 E3.60558
G1 X109.613 Y100.08 E3.66175
G1 X108.939 Y101.297 E3.74273
G1 X108.407 Y102.158 E3.80164
G1 X107.688 Y103.206 E3.87561
G1 X107.134 Y103.942 E3.92923
G1 X106.603 Y104.54 E3.97578
G1 X105.253 Y105.95 E4.0894
G1 X104.588 Y106.586 E4.14296
G1 X103.892 Y107.147 E4.19499
G1 X102.303 Y108.32 E4.30995
G1 X101.54 Y108.834 E4.3635
G1 X100.786 Y109.254 E4.41373
G1 X99.079 Y110.116 E4.52504
G1 X98.24 Y110.495 E4.57862
G1 X97.411 Y110.788 E4.6298
G1 X95.534 Y111.364 E4.74408
G1 X94.643 Y111.595 E4.79766
G1 X93.776 Y111.743 E4.84885
G1 X91.839 Y111.992 E4.96252
G1 X90.921 Y112.07 E5.01615
G1 X90.041 Y112.07 E5.06737
G1 X88.093 Y111.988 E5.18085
G1 X87.176 Y111.909 E5.23442
G1 X86.3 Y111.758 E5.28616
G1 X84.403 Y111.348 E5.39913
G1 X83.512 Y111.114 E5.45275
G1 X82.635 Y110.8 E5.50697
G1 X80.742 Y110.027 E5.62598
G1 X79.905 Y109.643 E5.67958
G1 X79.244 Y109.272 E5.7237
G1 X78.214 Y108.646 E5.79386
G1 X77.355 Y108.065 E5.85422
G1 X76.216 Y107.21 E5.93711
G1 X75.496 Y106.618 E5.99137
G1 X74.61 Y105.822 E6.06069
G1 X73.952 Y105.178 E6.11428
G1 X73.448 Y104.598 E6.15901
G1 X72.234 Y103.095 E6.27146
G1 X71.687 Y102.354 E6.32507
G1 X71.225 Y101.601 E6.37649
G1 X70.277 Y99.903 E6.48968
G1 X69.863 Y99.081 E6.54325
G1 X69.532 Y98.251 E6.59526
G1 X68.875 Y96.382 E6.71058
G1 X68.608 Y95.501 E6.76416
G1 X68.427 Y94.654 E6.81457
G1 X68.104 Y92.765 E6.92612
G1 X67.988 Y91.851 E6.97974
G1 X67.952 Y90.978 E7.0306
G1 X67.952 Y89.026 E7.14422
G1 X67.992 Y88.106 E7.19782
G1 X68.106 Y87.226 E7.24946
G1 X68.44 Y85.288 E7.36393
G1 X68.636 Y84.388 E7.41754
G1 X68.894 Y83.549 E7.46863
G1 X69.539 Y81.728 E7.58108
G1 X69.884 Y80.874 E7.63469
G1 X70.274 Y80.102 E7.68503
G1 X71.218 Y78.41 E7.7978
G1 X71.701 Y77.627 E7.85135
G1 X72.232 Y76.911 E7.90324
G1 X73.473 Y75.376 E8.01813
G1 X74.082 Y74.686 E8.0717
M207 X30
G0 F3600 X74.382 Y74.951
M207 X20
G1 F1800 X74.981 Y74.38 E8.11986
G1 X76.431 Y73.105 E8.23225
G1 X77.135 Y72.539 E8.28483
G1 X77.817 Y72.08 E8.33267
G1 X79.486 Y71.052 E8.44677
G1 X80.275 Y70.613 E8.49932
G1 X81.038 Y70.27 E8.54801
G1 X82.848 Y69.544 E8.66152
G1 X83.7 Y69.245 E8.71408
G1 X84.494 Y69.04 E8.76181
G1 X86.385 Y68.632 E8.87441
G1 X87.275 Y68.481 E8.92695
G1 X88.102 Y68.412 E8.97525
G1 X90.053 Y68.329 E9.08892
G1 X90.957 Y68.331 E9.14153
G1 X91.783 Y68.403 E9.18979
G1 X93.711 Y68.65 E9.30293
G1 X94.601 Y68.804 E9.3555
G1 X95.404 Y69.015 E9.40383
G1 X97.277 Y69.589 E9.51785
G1 X98.128 Y69.891 E9.57041
G1 X98.877 Y70.232 E9.61831
G1 X100.616 Y71.108 E9.73165
G1 X101.404 Y71.549 E9.78421
G1 X102.096 Y72.019 E9.8329
G1 X103.659 Y73.176 E9.94608
G1 X104.36 Y73.745 E9.99864
G1 X104.964 Y74.326 E10.04742
G1 X106.326 Y75.751 E10.16215
G1 X106.92 Y76.431 E10.21471
G1 X107.408 Y77.095 E10.26267
G1 X108.482 Y78.687 E10.37445
G1 X108.953 Y79.457 E10.42698
G1 X109.315 Y80.177 E10.47389
G1 X110.119 Y81.949 E10.58715
G1 X110.455 Y82.787 E10.6397
G1 X110.701 Y83.595 E10.68886
G1 X111.194 Y85.49 E10.80283
G1 X111.383 Y86.373 E10.85539
G1 X111.488 Y87.215 E10.90478
G1 X111.651 Y89.18 E11.01955
G1 X111.686 Y90.082 E11.07209
G1 X111.649 Y90.889 E11.11911
G1 X111.485 Y92.814 E11.23156
G1 X111.369 Y93.709 E11.28409
G1 X111.196 Y94.504 E11.33144
G1 X110.715 Y96.362 E11.44315
G1 X110.451 Y97.226 E11.49574
G1 X110.176 Y97.916 E11.53897
G1 X109.675 Y99.054 E11.61135
G1 X109.263 Y99.886 E11.66538
G1 X108.589 Y101.103 E11.74636
G1 X108.077 Y101.931 E11.80302
G1 X107.358 Y102.979 E11.877
G1 X106.814 Y103.701 E11.92961
G1 X106.315 Y104.263 E11.97336
G1 X104.965 Y105.673 E12.08698
G1 X104.312 Y106.297 E12.13955
G1 X103.655 Y106.825 E12.18861
G1 X102.066 Y107.998 E12.30357
G1 X101.316 Y108.502 E12.35616
G1 X100.606 Y108.897 E12.40346
G1 X98.899 Y109.759 E12.51476
G1 X98.075 Y110.13 E12.56736
G1 X97.293 Y110.405 E12.61561
G1 X95.416 Y110.981 E12.72989
G1 X94.542 Y111.208 E12.78245
G1 X93.725 Y111.347 E12.83068
G1 X91.788 Y111.596 E12.94436
G1 X90.888 Y111.671 E12.99692
G1 X90.058 Y111.67 E13.04523
G1 X88.11 Y111.588 E13.15872
G1 X87.21 Y111.51 E13.2113
G1 X86.384 Y111.367 E13.26009
G1 X84.487 Y110.957 E13.37306
G1 X83.614 Y110.727 E13.4256
G1 X82.786 Y110.43 E13.4768
G1 X80.893 Y109.657 E13.59582
G1 X80.073 Y109.279 E13.64837
G1 X79.451 Y108.93 E13.68989
G1 X78.421 Y108.304 E13.76004
G1 X77.596 Y107.745 E13.81805
G1 X76.457 Y106.89 E13.90094
G1 X75.763 Y106.321 E13.95318
G1 X74.877 Y105.525 E14.0225
G1 X74.233 Y104.892 E14.07506
G1 X73.759 Y104.346 E14.11715
G1 X72.545 Y102.843 E14.2296
G1 X72.009 Y102.116 E14.28218
G1 X71.574 Y101.406 E14.33064
G1 X70.626 Y99.708 E14.44383
G1 X70.221 Y98.901 E14.49639
G1 X69.909 Y98.119 E14.54539
G1 X69.252 Y96.25 E14.66071
G1 X68.991 Y95.385 E14.71329
G1 X68.821 Y94.586 E14.76084
G1 X68.498 Y92.697 E14.87239
G1 X68.385 Y91.801 E14.92495
G1 X68.352 Y90.978 E14.97289
G1 X68.352 Y89.026 E15.08651
G1 X68.392 Y88.124 E15.13906
G1 X68.5 Y87.294 E15.18778
G1 X68.834 Y85.356 E15.30225
G1 X69.027 Y84.473 E15.35485
G1 X69.271 Y83.682 E15.40303
G1 X69.916 Y81.861 E15.51548
G1 X70.255 Y81.024 E15.56804
G1 X70.624 Y80.297 E15.61549
G1 X71.568 Y78.605 E15.72827
G1 X72.042 Y77.837 E15.7808
G1 X72.543 Y77.162 E15.82973
G1 X73.784 Y75.627 E15.94462
G1 X74.382 Y74.951 E15.99715
M207 X30
G1 F1200 E15.49715
G0 F3600 X82.68 Y80.293
G0 X83.527 Y81.257
G0 X96.005 Y86.212
G0 X96.075 Y86.282
M207 X20
;TYPE:WALL-INNER
G1 F1200 E15.99715
G1 F1800 X96.075 Y93.718 E16.42997
G1 X99.926 Y93.718 E16.65411
G1 X99.927 Y93.718 E16.65417
G1 X100.235 Y93.718 E16.6721
G1 X100.108 Y93.999 E16.68252
G1 X99.514 Y95.316 E16.76661
G1 X98.478 Y96.848 E16.87425
G1 X97.202 Y98.179 E16.98157
G1 X95.7 Y99.286 E17.09018
G1 X94.063 Y100.112 E17.1969
G1 X92.287 Y100.654 E17.30498
G1 X90.466 Y100.888 E17.41184
G1 X88.614 Y100.809 E17.51974
G1 X86.806 Y100.42 E17.62738
G1 X85.073 Y99.718 E17.73621
G1 X83.519 Y98.761 E17.84244
G1 X82.121 Y97.527 E17.95098
G1 X80.972 Y96.103 E18.05748
G1 X80.07 Y94.489 E18.16509
G1 X79.453 Y92.743 E18.27288
G1 X79.141 Y90.925 E18.38024
G1 X79.141 Y89.075 E18.48792
G1 X79.453 Y87.257 E18.59529
G1 X80.07 Y85.511 E18.70307
G1 X80.972 Y83.897 E18.81069
G1 X82.136 Y82.456 E18.91851
G1 X83.516 Y81.241 E19.02553
G1 X85.094 Y80.269 E19.1334
G1 X86.809 Y79.58 E19.24098
G1 X88.614 Y79.191 E19.34845
G1 X90.466 Y79.112 E19.45635
G1 X92.293 Y79.347 E19.56356
G1 X94.065 Y79.888 E19.6714
G1 X95.711 Y80.719 E19.77873
G1 X97.204 Y81.822 E19.88677
G1 X98.478 Y83.152 E19.99397
G1 X99.514 Y84.684 E20.10161
G1 X100.108 Y86.001 E20.18571
G1 X100.235 Y86.282 E20.20365
G1 X99.927 Y86.282 E20.21406
G1 X99.926 Y86.282 E20.21412
G1 X96.075 Y86.282 E20.43827
M207 X30
G0 F3600 X96.005 Y86.212
G0 X93.895 Y90.664
G0 X93.797 Y90.648
M207 X20
G1 F1800 X93.849 Y89.964 E20.47819
G1 X93.797 Y89.349 E20.51412
G1 X93.631 Y88.716 E20.55221
G1 X93.366 Y88.13 E20.58964
G1 X92.998 Y87.58 E20.62816
G1 X92.544 Y87.107 E20.66632
G1 X92.02 Y86.72 E20.70423
G1 X91.437 Y86.426 E20.74224
G1 X90.812 Y86.235 E20.78028
G1 X90.164 Y86.151 E20.81831
G1 X89.511 Y86.179 E20.85635
G1 X88.871 Y86.316 E20.89445
G1 X88.266 Y86.561 E20.93244
G1 X87.709 Y86.903 E20.97048
G1 X87.219 Y87.334 E21.00847
G1 X86.808 Y87.843 E21.04655
G1 X86.49 Y88.413 E21.08454
G1 X86.273 Y89.029 E21.12255
G1 X86.162 Y89.673 E21.16059
G1 X86.162 Y90.327 E21.19866
G1 X86.273 Y90.971 E21.23669
G1 X86.49 Y91.587 E21.27471
G1 X86.808 Y92.157 E21.3127
G1 X87.219 Y92.666 E21.35078
G1 X87.709 Y93.097 E21.38876
G1 X88.266 Y93.439 E21.4268
G1 X88.871 Y93.684 E21.4648
G1 X89.511 Y93.821 E21.50289
G1 X90.164 Y93.849 E21.54093
G1 X90.812 Y93.765 E21.57897
G1 X91.437 Y93.574 E21.61701
G1 X92.02 Y93.28 E21.65501
G1 X92.544 Y92.893 E21.69293
G1 X92.998 Y92.42 E21.73109
G1 X93.366 Y91.87 E21.7696
G1 X93.631 Y91.284 E21.80704
G1 X93.797 Y90.648 E21.8453
M207 X30
G0 F3600 X93.895 Y90.664
G0 X96.447 Y86.654
G0 X100.303 Y86.654
G0 X100.725 Y88.188
G0 X100.742 Y88.172
M207 X20
G1 F1800 X100.897 Y90.011 E21.95272
G1 X100.742 Y91.828 E22.05886
G1 X100.675 Y92.088 E22.07449
G1 X100.675 Y91.828 E22.07565
G1 X100.675 Y90.011 E22.1138
G1 X100.675 Y88.172 E22.15241
G1 X100.675 Y87.912 E22.16754
G1 X100.742 Y88.172 E22.16917
M207 X30
G0 F3600 X100.725 Y88.188
G0 X100.303 Y93.346
G0 X96.447 Y93.346
G0 X95.975 Y86.682
G0 X96.475 Y86.682
M207 X20
;TYPE:WALL-OUTER
G1 F1800 X96.475 Y93.318 E22.55542
G1 X100.275 Y93.318 E22.7766
G1 X100.275 Y86.682 E23.16285
G1 X96.475 Y86.682 E23.38403
M207 X30
G0 F3600 X96.475 Y86.882
G0 X95.975 Y86.882
G0 X93.883 Y90.708
G0 X93.401 Y90.582
M207 X20
G1 F1800 X93.448 Y89.966 E23.41999
G1 X93.401 Y89.417 E23.45206
G1 X93.253 Y88.85 E23.48617
G1 X93.015 Y88.325 E23.51972
G1 X92.685 Y87.832 E23.55425
G1 X92.279 Y87.409 E23.58838
G1 X91.809 Y87.062 E23.62238
G1 X91.287 Y86.798 E23.65643
G1 X90.727 Y86.627 E23.69051
G1 X90.147 Y86.552 E23.72455
G1 X89.562 Y86.577 E23.75863
G1 X88.989 Y86.7 E23.79274
G1 X88.447 Y86.919 E23.82677
G1 X87.948 Y87.226 E23.86087
G1 X87.509 Y87.612 E23.89489
G1 X87.141 Y88.068 E23.929
G1 X86.856 Y88.578 E23.96301
G1 X86.661 Y89.13 E23.99708
G1 X86.562 Y89.707 E24.03116
G1 X86.562 Y90.293 E24.06527
G1 X86.661 Y90.87 E24.09934
G1 X86.856 Y91.422 E24.13342
G1 X87.141 Y91.932 E24.16742
G1 X87.509 Y92.388 E24.20153
G1 X87.948 Y92.774 E24.23555
G1 X88.447 Y93.081 E24.26965
G1 X88.989 Y93.3 E24.30368
G1 X89.562 Y93.423 E24.33779
G1 X90.147 Y93.448 E24.37187
G1 X90.727 Y93.373 E24.40591
G1 X91.287 Y93.202 E24.43999
G1 X91.809 Y92.938 E24.47404
G1 X92.279 Y92.591 E24.50804
G1 X92.685 Y92.168 E24.54217
G1 X93.015 Y91.675 E24.5767
G1 X93.253 Y91.15 E24.61025
G1 X93.401 Y90.582 E24.64442
M207 X30
G0 F3600 X93.416 Y90.383
G0 X93.913 Y90.421
G0 X93.87 Y89.81
G0 X92.272 Y79.444
G0 X92.379 Y78.954
M207 X20
G1 F1800 X94.211 Y79.514 E24.75592
G1 X95.925 Y80.379 E24.86767
G1 X97.469 Y81.52 E24.97941
G1 X98.788 Y82.897 E25.0904
G1 X99.867 Y84.493 E25.20253
G1 X100.652 Y86.232 E25.31359
G1 X101.139 Y88.109 E25.42645
G1 X101.297 Y89.967 E25.53499
G1 X101.297 Y90.033 E25.53883
G1 X101.139 Y91.891 E25.64737
G1 X100.654 Y93.763 E25.75992
G1 X99.867 Y95.507 E25.87129
G1 X98.788 Y97.103 E25.98342
G1 X97.469 Y98.479 E26.09437
G1 X95.91 Y99.628 E26.20709
G1 X94.209 Y100.486 E26.31798
G1 X92.373 Y101.047 E26.42972
G1 X90.483 Y101.289 E26.54063
G1 X88.566 Y101.208 E26.65231
G1 X86.687 Y100.803 E26.76419
G1 X84.89 Y100.076 E26.87702
G1 X83.281 Y99.085 E26.98701
G1 X81.834 Y97.807 E27.09938
G1 X80.639 Y96.327 E27.2101
G1 X79.704 Y94.654 E27.32165
G1 X79.065 Y92.844 E27.43337
G1 X78.741 Y90.958 E27.54476
G1 X78.741 Y89.042 E27.65628
G1 X79.065 Y87.156 E27.76766
G1 X79.704 Y85.346 E27.87939
G1 X80.639 Y83.673 E27.99094
G1 X81.846 Y82.179 E28.10273
G1 X83.281 Y80.915 E28.21404
G1 X84.91 Y79.912 E28.32538
G1 X86.692 Y79.196 E28.43717
G1 X88.566 Y78.792 E28.54875
G1 X90.483 Y78.711 E28.66043
G1 X92.379 Y78.954 E28.77169
M207 X30
G0 F3600 X92.57 Y79.012
G0 X92.206 Y79.728
M207 X20
;TYPE:SKIN
G1 F1800 X93.914 Y80.25 E28.87564
G1 X95.507 Y81.055 E28.97953
G1 X96.952 Y82.121 E29.08404
G1 X98.171 Y83.394 E29.18663
G1 X99.174 Y84.876 E29.29079
G1 X99.632 Y85.892 E29.35566
G1 X95.685 Y85.892 E29.58539
G1 X95.685 Y94.108 E30.06361
G1 X99.632 Y94.108 E30.29335
G1 X99.174 Y95.124 E30.35821
G1 X98.174 Y96.603 E30.46213
G1 X96.947 Y97.882 E30.56529
G1 X95.497 Y98.95 E30.67011
G1 X93.911 Y99.751 E30.77353
G1 X92.201 Y100.273 E30.87759
G1 X90.457 Y100.496 E30.97993
G1 X88.666 Y100.421 E31.08427
G1 X86.913 Y100.044 E31.18863
G1 X85.253 Y99.371 E31.29289
G1 X83.749 Y98.445 E31.3957
G1 X82.407 Y97.26 E31.4999
G1 X81.298 Y95.886 E31.60268
G1 X80.426 Y94.325 E31.70675
G1 X79.831 Y92.641 E31.81071
G1 X79.531 Y90.893 E31.91394
G1 X79.531 Y89.107 E32.01789
G1 X79.831 Y87.359 E32.12112
G1 X80.426 Y85.675 E32.22508
G1 X81.298 Y84.115 E32.3291
G1 X82.419 Y82.727 E32.43295
G1 X83.75 Y81.555 E32.53617
G1 X85.27 Y80.619 E32.64007
G1 X86.921 Y79.955 E32.74365
G1 X88.666 Y79.579 E32.84755
G1 X90.456 Y79.504 E32.95183
G1 X92.206 Y79.728 E33.05452
M207 X30
G0 F3600 X90.894 Y85.853
M207 X20
G1 F1800 X90.181 Y85.759 E33.09638
G1 X89.462 Y85.791 E33.13827
G1 X88.756 Y85.942 E33.18029
G1 X88.09 Y86.212 E33.22212
G1 X87.477 Y86.589 E33.26401
G1 X86.936 Y87.063 E33.30587
G1 X86.484 Y87.624 E33.3478
G1 X86.133 Y88.252 E33.38968
G1 X85.894 Y88.93 E33.43152
G1 X85.772 Y89.64 E33.47345
G1 X85.772 Y90.36 E33.51536
G1 X85.894 Y91.07 E33.55729
G1 X86.133 Y91.748 E33.59914
G1 X86.484 Y92.376 E33.64101
G1 X86.936 Y92.937 E33.68294
G1 X87.477 Y93.411 E33.72481
G1 X88.09 Y93.788 E33.7667
G1 X88.756 Y94.058 E33.80853
G1 X89.462 Y94.209 E33.85055
G1 X90.181 Y94.241 E33.89244
G1 X90.894 Y94.147 E33.9343
G1 X91.583 Y93.937 E33.97622
G1 X92.225 Y93.613 E34.01808
G1 X92.803 Y93.187 E34.05987
G1 X93.303 Y92.665 E34.10195
G1 X93.708 Y92.06 E34.14432
G1 X94 Y91.415 E34.18553
G1 X94.183 Y90.713 E34.22776
G1 X94.241 Y89.962 E34.2716
G1 X94.183 Y89.283 E34.31127
G1 X94 Y88.585 E34.35327
G1 X93.708 Y87.94 E34.39448
G1 X93.303 Y87.335 E34.43685
G1 X92.803 Y86.813 E34.47893
G1 X92.225 Y86.387 E34.52072
G1 X91.583 Y86.063 E34.56257
G1 X90.894 Y85.853 E34.6045
M207 X30
G0 F3600 X95.29 Y81.148
M207 X20
G1 F1800 X98.828 Y84.686 E34.89573
G1 X98.898 Y84.756
M207 X30
G0 F3600 X98.722 Y85.711
M207 X20
G1 F1800 X93.244 Y80.233 E35.34665
G1 X93.174 Y80.163
M207 X30
G0 F3600 X92.43 Y79.985
M207 X20
G1 F1800 X98.157 Y85.711 E35.81802
G1 X98.227 Y85.781
M207 X30
G0 F3600 X97.591 Y85.711
M207 X20
G1 F1800 X91.728 Y79.848 E36.30063
G1 X91.658 Y79.778
M207 X30
G0 F3600 X91.079 Y79.765
M207 X20
G1 F1800 X97.025 Y85.711 E36.79008
G1 X97.095 Y85.781
M207 X30
G0 F3600 X96.459 Y85.711
M207 X20
G1 F1800 X90.434 Y79.686 E37.28602
G1 X90.364 Y79.616
M207 X30
G0 F3600 X89.89 Y79.708
M207 X20
G1 F1800 X95.894 Y85.711 E37.7802
G1 X95.964 Y85.781
M207 X30
G0 F3600 X95.503 Y85.887
M207 X20
G1 F1800 X89.347 Y79.731 E38.28693
G1 X89.277 Y79.661
M207 X30
G0 F3600 X88.804 Y79.753
M207 X20
G1 F1800 X95.503 Y86.452 E38.83835
G1 X95.573 Y86.522
M207 X30
G0 F3600 X95.503 Y87.018
M207 X20
G1 F1800 X88.322 Y79.837 E39.42945
G1 X88.252 Y79.767
M207 X30
G0 F3600 X87.857 Y79.937
M207 X20
G1 F1800 X95.503 Y87.584 E40.05887
G1 X95.573 Y87.654
M207 X30
G0 F3600 X95.503 Y88.15
M207 X20
G1 F1800 X87.392 Y80.038 E40.72657
G1 X87.322 Y79.968
M207 X30
G0 F3600 X86.933 Y80.144
M207 X20
G1 F1800 X95.503 Y88.715 E41.43205
G1 X95.573 Y88.785
M207 X30
G0 F3600 X95.503 Y89.281
M207 X20
