;FLAVOR:Repetier
;TIME:3685
;Generated with Cura_SteamEngine 3.4.1
M104 S212
M109 S212
M82 ;absolute extrusion mode
G28 ;Home
G1 Z15.0 F6000 ;Move the platform down 15mm
;Prime the extruder
G92 E0
G1 F200 E3
G92 E0
G92 E0
G1 F1200 E-0.5
;LAYER_COUNT:352
;LAYER:0
M107
M202 X5000 Y5000
M207 X30
G0 F3600 X73.354 Y74.001 Z0.35
M201 X500 Y500
M207 X20
;TYPE:SKIRT
G1 F1200 E0
G1 F1800 X73.976 Y73.406 E0.0501
G1 X75.563 Y72.007 E0.17324
G1 X76.28 Y71.428 E0.22688
G1 X77.015 Y70.932 E0.27849
G1 X78.816 Y69.823 E0.4016
G1 X79.62 Y69.375 E0.45517
G1 X80.422 Y69.013 E0.50639
G1 X82.393 Y68.221 E0.63002
G1 X83.261 Y67.916 E0.68358
G1 X84.109 Y67.695 E0.73458
G1 X86.176 Y67.249 E0.85766
G1 X87.084 Y67.095 E0.91127
G1 X87.968 Y67.02 E0.9629
G1 X90.091 Y66.931 E1.08658
G1 X91.012 Y66.933 E1.14019
G1 X91.9 Y67.01 E1.19207
G1 X94.018 Y67.285 E1.31638
G1 X94.925 Y67.443 E1.36997
G1 X95.683 Y67.639 E1.41554
G1 X97.044 Y68.045 E1.49821
G1 X97.99 Y68.377 E1.55656
G1 X99.27 Y68.895 E1.63693
G1 X100.133 Y69.29 E1.69218
G1 X101.392 Y69.936 E1.77454
G1 X102.192 Y70.391 E1.82811
G1 X102.861 Y70.848 E1.87527
G1 X104.549 Y72.098 E1.99752
G1 X105.265 Y72.678 E2.05116
G1 X105.882 Y73.271 E2.10097
G1 X107.352 Y74.8 E2.22442
G1 X107.961 Y75.49 E2.27799
G1 X108.446 Y76.14 E2.32519
G1 X109.258 Y77.321 E2.40861
G1 X109.773 Y78.151 E2.46547
G1 X110.445 Y79.352 E2.54557
G1 X110.884 Y80.228 E2.6026
G1 X111.464 Y81.535 E2.68583
G1 X111.8 Y82.392 E2.73941
G1 X112.031 Y83.156 E2.78587
G1 X112.562 Y85.189 E2.90817
G1 X112.756 Y86.089 E2.96176
G1 X112.869 Y86.985 E3.01432
G1 X113.05 Y89.15 E3.14078
G1 X113.087 Y90.07 E3.19437
G1 X113.049 Y90.934 E3.24471
G1 X112.874 Y92.985 E3.36452
G1 X112.756 Y93.898 E3.4181
G1 X112.578 Y94.724 E3.46728
G1 X112.049 Y96.781 E3.59091
G1 X111.781 Y97.662 E3.64451
G1 X111.448 Y98.495 E3.69672
G1 X110.57 Y100.444 E3.82114
G1 X110.155 Y101.266 E3.87474
G1 X109.685 Y102.028 E3.92685
G1 X108.496 Y103.786 E4.05038
G1 X107.948 Y104.526 E4.10398
G1 X107.363 Y105.189 E4.15544
G1 X105.901 Y106.712 E4.27832
G1 X105.235 Y107.347 E4.33188
G1 X104.551 Y107.898 E4.38301
G1 X102.826 Y109.172 E4.50782
G1 X102.063 Y109.686 E4.56137
G1 X101.306 Y110.108 E4.61182
G1 X99.442 Y111.049 E4.73335
G1 X98.603 Y111.427 E4.78692
G1 X97.759 Y111.724 E4.83899
G1 X95.721 Y112.346 E4.96302
G1 X94.83 Y112.577 E5.01659
G1 X93.985 Y112.721 E5.06649
G1 X91.895 Y112.991 E5.18915
G1 X90.978 Y113.069 E5.24271
G1 X90.093 Y113.069 E5.29422
G1 X87.97 Y112.98 E5.4179
G1 X87.053 Y112.901 E5.47147
G1 X86.173 Y112.749 E5.52345
G1 X84.093 Y112.299 E5.64732
G1 X83.202 Y112.066 E5.70093
G1 X82.458 Y111.805 E5.74682
G1 X81.147 Y111.29 E5.8288
G1 X80.243 Y110.885 E5.88646
G1 X78.99 Y110.252 E5.96817
G1 X78.151 Y109.779 E6.02423
G1 X76.964 Y109.037 E6.10571
G1 X76.206 Y108.516 E6.15924
G1 X75.567 Y107.995 E6.20723
G1 X73.943 Y106.561 E6.33333
G1 X73.28 Y105.922 E6.38693
G1 X72.706 Y105.267 E6.43762
G1 X71.401 Y103.648 E6.55866
G1 X70.855 Y102.907 E6.61223
G1 X70.399 Y102.164 E6.66297
G1 X69.366 Y100.314 E6.7863
G1 X68.953 Y99.491 E6.8399
G1 X68.629 Y98.685 E6.89046
G1 X67.921 Y96.686 E7.01389
G1 X67.652 Y95.806 E7.06745
G1 X67.464 Y94.932 E7.11949
G1 X67.106 Y92.837 E7.2432
G1 X66.991 Y91.924 E7.29676
G1 X66.955 Y91.047 E7.34785
G1 X66.956 Y88.928 E7.47118
G1 X66.996 Y88.008 E7.52478
G1 X67.109 Y87.137 E7.5759
G1 X67.467 Y85.055 E7.69887
G1 X67.663 Y84.155 E7.75248
G1 X67.921 Y83.316 E7.80357
G1 X68.626 Y81.323 E7.92662
G1 X68.97 Y80.469 E7.9802
G1 X69.365 Y79.688 E8.03115
G1 X70.403 Y77.83 E8.15502
G1 X70.887 Y77.047 E8.2086
G1 X71.416 Y76.334 E8.26028
G1 X72.745 Y74.691 E8.38328
G1 X73.354 Y74.001 E8.43685
M207 X30
G0 F3600 X73.654 Y74.266
M207 X20
G1 F1800 X74.241 Y73.706 E8.48407
G1 X75.828 Y72.307 E8.60721
G1 X76.531 Y71.74 E8.65977
G1 X77.225 Y71.273 E8.70846
G1 X79.026 Y70.164 E8.83157
G1 X79.815 Y69.725 E8.88412
G1 X80.571 Y69.385 E8.93237
G1 X82.542 Y68.593 E9.05601
G1 X83.394 Y68.293 E9.10859
G1 X84.194 Y68.086 E9.15668
G1 X86.261 Y67.64 E9.27976
G1 X87.151 Y67.489 E9.33231
G1 X87.985 Y67.42 E9.38101
G1 X90.108 Y67.331 E9.50469
G1 X91.011 Y67.333 E9.55725
G1 X91.848 Y67.407 E9.60616
G1 X93.966 Y67.682 E9.73047
G1 X94.856 Y67.838 E9.78307
G1 X95.569 Y68.023 E9.82594
G1 X96.93 Y68.429 E9.90861
G1 X97.84 Y68.748 E9.96473
G1 X99.12 Y69.266 E10.04511
G1 X99.95 Y69.646 E10.09824
G1 X101.209 Y70.292 E10.1806
G1 X101.994 Y70.739 E10.23318
G1 X102.623 Y71.17 E10.27756
G1 X104.311 Y72.42 E10.39982
G1 X105.012 Y72.989 E10.45237
G1 X105.594 Y73.548 E10.49934
G1 X107.064 Y75.077 E10.6228
G1 X107.66 Y75.755 E10.67534
G1 X108.116 Y76.367 E10.71976
G1 X108.928 Y77.548 E10.80318
G1 X109.424 Y78.346 E10.85787
G1 X110.096 Y79.547 E10.93797
G1 X110.518 Y80.391 E10.9929
G1 X111.098 Y81.698 E11.07613
G1 X111.428 Y82.539 E11.12871
G1 X111.644 Y83.257 E11.17235
G1 X112.175 Y85.29 E11.29465
G1 X112.364 Y86.173 E11.34721
G1 X112.471 Y87.018 E11.39679
G1 X112.652 Y89.183 E11.52324
G1 X112.687 Y90.086 E11.57584
G1 X112.65 Y90.9 E11.62327
G1 X112.475 Y92.951 E11.74308
G1 X112.359 Y93.847 E11.79567
G1 X112.191 Y94.624 E11.84194
G1 X111.662 Y96.681 E11.96556
G1 X111.398 Y97.545 E12.01815
G1 X111.083 Y98.33 E12.06738
G1 X110.205 Y100.279 E12.1918
G1 X109.798 Y101.086 E12.24441
G1 X109.354 Y101.804 E12.29355
G1 X108.165 Y103.562 E12.41708
G1 X107.626 Y104.287 E12.46966
G1 X107.074 Y104.912 E12.5182
G1 X105.612 Y106.435 E12.64108
G1 X104.959 Y107.058 E12.69361
G1 X104.314 Y107.576 E12.74176
G1 X102.589 Y108.85 E12.86658
G1 X101.839 Y109.354 E12.91917
G1 X101.126 Y109.751 E12.96667
G1 X99.262 Y110.692 E13.08821
G1 X98.438 Y111.062 E13.14078
G1 X97.642 Y111.342 E13.18989
G1 X95.604 Y111.964 E13.31392
G1 X94.73 Y112.189 E13.36645
G1 X93.934 Y112.324 E13.41344
G1 X91.844 Y112.594 E13.5361
G1 X90.944 Y112.67 E13.58867
G1 X90.11 Y112.669 E13.63722
G1 X87.987 Y112.58 E13.76089
G1 X87.087 Y112.502 E13.81348
G1 X86.257 Y112.358 E13.86251
G1 X84.177 Y111.908 E13.98638
G1 X83.304 Y111.679 E14.03891
G1 X82.605 Y111.433 E14.08204
G1 X81.294 Y110.918 E14.16402
G1 X80.424 Y110.528 E14.21952
G1 X79.171 Y109.895 E14.30123
G1 X78.363 Y109.44 E14.3552
G1 X77.176 Y108.698 E14.43668
G1 X76.433 Y108.186 E14.4892
G1 X75.832 Y107.695 E14.53437
G1 X74.208 Y106.261 E14.66047
G1 X73.558 Y105.634 E14.71304
G1 X73.018 Y105.016 E14.7608
G1 X71.713 Y103.397 E14.88184
G1 X71.178 Y102.67 E14.93438
G1 X70.748 Y101.969 E14.98225
G1 X69.715 Y100.119 E15.10557
G1 X69.31 Y99.312 E15.15813
G1 X69.006 Y98.551 E15.20583
G1 X68.298 Y96.552 E15.32926
G1 X68.035 Y95.689 E15.38177
G1 X67.859 Y94.865 E15.43082
G1 X67.501 Y92.77 E15.55452
G1 X67.388 Y91.874 E15.60709
G1 X67.355 Y91.047 E15.65526
G1 X67.356 Y88.928 E15.7786
G1 X67.396 Y88.026 E15.83115
G1 X67.504 Y87.204 E15.87941
G1 X67.862 Y85.122 E16.00237
G1 X68.054 Y84.24 E16.05491
G1 X68.298 Y83.449 E16.10309
G1 X69.003 Y81.456 E16.22614
G1 X69.341 Y80.619 E16.27868
G1 X69.714 Y79.883 E16.3267
G1 X70.752 Y78.025 E16.45058
G1 X71.227 Y77.257 E16.50314
G1 X71.727 Y76.585 E16.5519
G1 X73.056 Y74.942 E16.6749
G1 X73.654 Y74.266 E16.72743
M207 X30
G1 F1200 E16.22743
G0 F3600 X86.043 Y77.451
G0 X86.521 Y78.643
G0 X92.484 Y78.467
G0 X92.505 Y78.37
M207 X20
;TYPE:WALL-INNER
G1 F1200 E16.72743
G1 F1800 X94.436 Y78.96 E16.84495
G1 X96.235 Y79.868 E16.96224
G1 X97.864 Y81.072 E17.08015
G1 X99.256 Y82.524 E17.19723
G1 X100.387 Y84.196 E17.31472
G1 X101.217 Y86.036 E17.43221
G1 X101.727 Y87.989 E17.54969
G1 X101.897 Y90.011 E17.6678
G1 X101.728 Y91.985 E17.78312
G1 X101.219 Y93.961 E17.90189
G1 X100.387 Y95.804 E18.01958
G1 X99.256 Y97.476 E18.13708
G1 X97.862 Y98.929 E18.25428
G1 X96.223 Y100.138 E18.37282
G1 X94.436 Y101.04 E18.48933
G1 X92.496 Y101.631 E18.60737
G1 X90.509 Y101.887 E18.72398
G1 X88.487 Y101.801 E18.84178
G1 X86.516 Y101.376 E18.95914
G1 X84.643 Y100.624 E19.07662
G1 X82.924 Y99.565 E19.19414
G1 X81.398 Y98.217 E19.31265
G1 X80.144 Y96.663 E19.42888
G1 X79.159 Y94.901 E19.54637
G1 X78.485 Y92.993 E19.66415
G1 X78.145 Y91.011 E19.7812
G1 X78.145 Y88.989 E19.89889
G1 X78.485 Y87.005 E20.01605
G1 X79.159 Y85.099 E20.13372
G1 X80.144 Y83.337 E20.25122
G1 X81.414 Y81.764 E20.36889
G1 X82.921 Y80.437 E20.48577
G1 X84.643 Y79.376 E20.60349
G1 X86.516 Y78.624 E20.72097
G1 X88.487 Y78.199 E20.83833
G1 X90.509 Y78.113 E20.95613
G1 X92.505 Y78.37 E21.07326
M207 X30
G0 F3600 X92.484 Y78.467
G0 X96.005 Y86.212
G0 X96.075 Y86.282
M207 X20
G1 F1800 X96.075 Y93.718 E21.50608
G1 X100.675 Y93.718 E21.77382
G1 X100.675 Y86.282 E22.20664
G1 X96.075 Y86.282 E22.47438
M207 X30
G0 F3600 X96.005 Y86.212
G0 X91.797 Y87.053
G0 X91.745 Y87.138
M207 X20
G1 F1800 X91.232 Y86.884 E22.5077
G1 X90.689 Y86.721 E22.5407
G1 X90.125 Y86.651 E22.57378
G1 X89.557 Y86.678 E22.60688
G1 X89.001 Y86.801 E22.64002
G1 X88.476 Y87.016 E22.67304
G1 X87.995 Y87.316 E22.70604
G1 X87.58 Y87.68 E22.73817
G1 X87.224 Y88.123 E22.77125
G1 X86.945 Y88.618 E22.80432
G1 X86.756 Y89.155 E22.83746
G1 X86.66 Y89.716 E22.87058
G1 X86.66 Y90.284 E22.90364
G1 X86.756 Y90.845 E22.93677
G1 X86.945 Y91.382 E22.96991
G1 X87.224 Y91.877 E23.00298
G1 X87.58 Y92.32 E23.03606
G1 X88.007 Y92.695 E23.06914
G1 X88.491 Y92.993 E23.10222
G1 X89.018 Y93.205 E23.13528
G1 X89.573 Y93.325 E23.16833
G1 X90.143 Y93.35 E23.20154
G1 X90.706 Y93.276 E23.23459
G1 X91.249 Y93.111 E23.26763
G1 X91.757 Y92.855 E23.30074
G1 X92.215 Y92.516 E23.3339
G1 X92.61 Y92.105 E23.36708
G1 X92.927 Y91.634 E23.40013
G1 X93.161 Y91.117 E23.43316
G1 X93.304 Y90.567 E23.46623
G1 X93.352 Y90 E23.49936
G1 X93.306 Y89.455 E23.53119
G1 X93.164 Y88.892 E23.56499
G1 X92.928 Y88.367 E23.59849
G1 X92.614 Y87.902 E23.63115
G1 X92.235 Y87.506 E23.66305
G1 X91.745 Y87.138 E23.69872
M207 X30
G0 F3600 X91.534 Y87.48
M207 X20
;TYPE:WALL-OUTER
G1 F1800 X91.085 Y87.257 E23.7279
G1 X90.606 Y87.114 E23.757
G1 X90.11 Y87.052 E23.78609
G1 X89.61 Y87.076 E23.81523
G1 X89.121 Y87.184 E23.84438
G1 X88.659 Y87.373 E23.87343
G1 X88.234 Y87.638 E23.90258
G1 X87.87 Y87.958 E23.93079
G1 X87.556 Y88.348 E23.95993
G1 X87.311 Y88.784 E23.98904
G1 X87.145 Y89.256 E24.01817
G1 X87.06 Y89.75 E24.04734
G1 X87.06 Y90.25 E24.07644
G1 X87.145 Y90.744 E24.10562
G1 X87.311 Y91.216 E24.13474
G1 X87.556 Y91.652 E24.16385
G1 X87.87 Y92.042 E24.193
G1 X88.246 Y92.372 E24.22211
G1 X88.672 Y92.635 E24.25125
G1 X89.136 Y92.821 E24.28035
G1 X89.625 Y92.927 E24.30947
G1 X90.126 Y92.949 E24.33866
G1 X90.621 Y92.884 E24.36772
G1 X91.1 Y92.738 E24.39687
G1 X91.547 Y92.513 E24.426
G1 X91.95 Y92.215 E24.45517
G1 X92.297 Y91.853 E24.48436
G1 X92.576 Y91.439 E24.51341
G1 X92.782 Y90.983 E24.54254
G1 X92.908 Y90.499 E24.57165
G1 X92.951 Y90 E24.6008
G1 X92.91 Y89.521 E24.62878
G1 X92.785 Y89.024 E24.65861
G1 X92.577 Y88.563 E24.68805
G1 X92.301 Y88.154 E24.71677
G1 X91.969 Y87.806 E24.74476
G1 X91.534 Y87.48 E24.7764
M207 X30
G0 F3600 X91.355 Y87.391
G0 X91.577 Y86.944
G0 X96.475 Y86.182
G0 X96.475 Y86.682
M207 X20
G1 F1800 X96.475 Y93.318 E25.16265
G1 X100.275 Y93.318 E25.38383
G1 X100.275 Y86.682 E25.77008
G1 X96.475 Y86.682 E25.99126
M207 X30
G0 F3600 X96.475 Y86.882
G0 X95.975 Y86.882
G0 X92.484 Y78.467
G0 X92.591 Y77.977
M207 X20
G1 F1800 X94.582 Y78.586 E26.11245
G1 X96.449 Y79.528 E26.23417
G1 X98.129 Y80.77 E26.35577
G1 X99.566 Y82.269 E26.47664
G1 X100.74 Y84.005 E26.59862
G1 X101.595 Y85.899 E26.71957
G1 X102.123 Y87.924 E26.84138
G1 X102.297 Y89.967 E26.96072
G1 X102.297 Y90.033 E26.96456
G1 X102.125 Y92.048 E27.08227
G1 X101.596 Y94.099 E27.20556
G1 X100.74 Y95.995 E27.32664
G1 X99.566 Y97.731 E27.44862
G1 X98.129 Y99.229 E27.56945
G1 X96.433 Y100.48 E27.69211
G1 X94.582 Y101.414 E27.81279
G1 X92.582 Y102.024 E27.93449
G1 X90.526 Y102.288 E28.05515
G1 X88.439 Y102.2 E28.17673
G1 X86.399 Y101.76 E28.2982
G1 X84.459 Y100.981 E28.41988
G1 X82.686 Y99.889 E28.54108
G1 X81.111 Y98.497 E28.66343
G1 X79.811 Y96.887 E28.78387
G1 X78.793 Y95.066 E28.9053
G1 X78.097 Y93.096 E29.02691
G1 X77.745 Y91.044 E29.14809
G1 X77.745 Y88.956 E29.26963
G1 X78.097 Y86.904 E29.39081
G1 X78.793 Y84.934 E29.51242
G1 X79.811 Y83.113 E29.63385
G1 X81.124 Y81.487 E29.75549
G1 X82.686 Y80.111 E29.87665
G1 X84.459 Y79.019 E29.99786
G1 X86.399 Y78.24 E30.11954
G1 X88.439 Y77.8 E30.24101
G1 X90.526 Y77.712 E30.36259
G1 X92.591 Y77.977 E30.48377
M207 X30
G0 F3600 X92.782 Y78.035
G0 X92.418 Y78.751
M207 X20
;TYPE:SKIN
G1 F1800 X94.285 Y79.322 E30.59741
G1 X96.031 Y80.204 E30.71126
G1 X97.609 Y81.369 E30.82543
G1 X98.952 Y82.769 E30.93835
G1 X100.047 Y84.388 E31.05211
G1 X100.725 Y85.892 E31.14814
G1 X95.685 Y85.892 E31.44149
G1 X95.685 Y94.108 E31.91971
G1 X100.725 Y94.108 E32.21306
G1 X100.047 Y95.612 E32.30908
G1 X98.952 Y97.231 E32.42285
G1 X97.607 Y98.632 E32.53589
G1 X96.019 Y99.802 E32.6507
G1 X94.284 Y100.679 E32.76385
G1 X92.41 Y101.25 E32.87788
G1 X90.499 Y101.495 E32.99002
G1 X88.539 Y101.413 E33.1042
G1 X86.628 Y101.001 E33.21799
G1 X84.819 Y100.274 E33.33147
G1 X83.154 Y99.249 E33.44527
G1 X81.684 Y97.95 E33.55945
G1 X80.47 Y96.446 E33.67195
G1 X79.515 Y94.737 E33.7859
G1 X78.863 Y92.891 E33.89985
G1 X78.535 Y90.979 E34.01277
G1 X78.535 Y89.02 E34.12679
G1 X78.863 Y87.107 E34.23976
G1 X79.515 Y85.263 E34.35361
G1 X80.47 Y83.555 E34.46751
G1 X81.697 Y82.035 E34.58121
G1 X83.155 Y80.751 E34.69429
G1 X84.819 Y79.726 E34.80804
G1 X86.628 Y78.999 E34.92152
G1 X88.539 Y78.587 E35.0353
G1 X90.499 Y78.505 E35.14949
G1 X92.418 Y78.751 E35.2621
M207 X30
G0 F3600 X90.769 Y86.338
M207 X20
G1 F1800 X90.14 Y86.259 E35.29899
G1 X89.505 Y86.29 E35.336
G1 X88.884 Y86.427 E35.37301
G1 X88.298 Y86.667 E35.40987
G1 X87.761 Y87.002 E35.44671
G1 X87.297 Y87.409 E35.48264
G1 X86.9 Y87.904 E35.51957
G1 X86.588 Y88.456 E35.55648
G1 X86.377 Y89.057 E35.59355
G1 X86.27 Y89.683 E35.63052
G1 X86.27 Y90.317 E35.66742
G1 X86.377 Y90.943 E35.70438
G1 X86.588 Y91.544 E35.74146
G1 X86.9 Y92.096 E35.77836
G1 X87.297 Y92.591 E35.8153
G1 X87.775 Y93.009 E35.85226
G1 X88.315 Y93.342 E35.88918
G1 X88.903 Y93.579 E35.92608
G1 X89.523 Y93.713 E35.963
G1 X90.16 Y93.742 E36.00012
G1 X90.788 Y93.658 E36.037
G1 X91.395 Y93.474 E36.07391
G1 X91.962 Y93.188 E36.11088
G1 X92.474 Y92.81 E36.14792
G1 X92.914 Y92.351 E36.18493
G1 X93.269 Y91.825 E36.22187
G1 X93.53 Y91.248 E36.25873
G1 X93.69 Y90.633 E36.29571
G1 X93.744 Y90 E36.33269
G1 X93.692 Y89.391 E36.36827
G1 X93.534 Y88.763 E36.40596
G1 X93.27 Y88.176 E36.44342
G1 X92.918 Y87.656 E36.47997
G1 X92.495 Y87.213 E36.51562
G1 X91.95 Y86.805 E36.55525
G1 X91.376 Y86.52 E36.59255
G1 X90.769 Y86.338 E36.62944
M207 X30
G0 F3600 X96.047 Y86.254
G0 X100.703 Y86.254
G0 X101.065 Y86.999
M207 X20
G1 F1800 X101.343 Y88.063 E36.69344
G1 X101.507 Y90.011 E36.80723
G1 X101.343 Y91.915 E36.91846
G1 X101.065 Y92.994 E36.98332
G1 X101.065 Y86.999 E37.33226
M207 X30
G0 F3600 X100.773 Y86.396
G0 X96.936 Y81.097
M207 X20
G1 F1800 X98.997 Y83.158 E37.50191
G1 X99.067 Y83.228
M207 X30
G0 F3600 X100.004 Y84.731
M207 X20
G1 F1800 X95.322 Y80.048 E37.88735
G1 X95.252 Y79.978
M207 X30
G0 F3600 X94.188 Y79.48
M207 X20
G1 F1800 X100.419 Y85.711 E38.40025
G1 X100.489 Y85.781
M207 X30
G0 F3600 X99.854 Y85.711
M207 X20
G1 F1800 X93.373 Y79.231 E38.93369
G1 X93.303 Y79.161
M207 X30
G0 F3600 X92.558 Y78.982
M207 X20
G1 F1800 X99.288 Y85.711 E39.48763
G1 X99.358 Y85.781
M207 X30
G0 F3600 X98.722 Y85.711
M207 X20
G1 F1800 X91.873 Y78.862 E40.0514
G1 X91.803 Y78.792
M207 X30
G0 F3600 X91.225 Y78.78
M207 X20
G1 F1800 X98.157 Y85.711 E40.62196
G1 X98.227 Y85.781
M207 X30
G0 F3600 X97.591 Y85.711
M207 X20
G1 F1800 X90.576 Y78.696 E41.1994
G1 X90.506 Y78.626
M207 X30
G0 F3600 X90.019 Y78.705
M207 X20
G1 F1800 X97.025 Y85.711 E41.7761
G1 X97.095 Y85.781
M207 X30
G0 F3600 X96.459 Y85.711
M207 X20
G1 F1800 X89.476 Y78.728 E42.3509
G1 X89.406 Y78.658
M207 X30
G0 F3600 X88.933 Y78.751
M207 X20
G1 F1800 X95.894 Y85.711 E42.92385
G1 X95.964 Y85.781
M207 X30
G0 F3600 X95.503 Y85.887
M207 X20
G1 F1800 X88.415 Y78.798 E43.50734
G1 X88.345 Y78.728
M207 X30
G0 F3600 X87.949 Y78.898
M207 X20
G1 F1800 X95.503 Y86.452 E44.12914
G1 X95.573 Y86.522
M207 X30
G0 F3600 X95.503 Y87.018
M207 X20
G1 F1800 X87.484 Y78.999 E44.78922
G1 X87.414 Y78.929
M207 X30
G0 F3600 X87.019 Y79.099
