;FLAVOR:Repetier
;TIME:4153
;Generated with Cura_SteamEngine 3.4.1
M104 S212
M109 S212
M82 ;absolute extrusion mode
G28 ;Home
G1 Z15.0 F6000 ;Move the platform down 15mm
;Prime the extruder
G92 E0
G1 F200 E3
G92 E0
G92 E0
G1 F1200 E-0.5
;LAYER_COUNT:10
;LAYER:0
M107
M202 X5000 Y5000
M207 X30
G0 F3600 X53.824 Y46.715 Z0.35
M201 X500 Y500
M207 X20
;TYPE:SKIRT
G1 F1200 E0
G1 F1800 X56.054 Y44.24 E0.19391
G1 X56.711 Y43.575 E0.24832
G1 X59.384 Y41.106 E0.46012
G1 X60.016 Y40.569 E0.50839
G1 X61.829 Y39.149 E0.64243
G1 X62.477 Y38.681 E0.68895
G1 X65.282 Y36.819 E0.88492
G1 X66.02 Y36.373 E0.93511
G1 X68.68 Y34.915 E1.11167
G1 X69.402 Y34.555 E1.15862
G1 X72.03 Y33.374 E1.32632
G1 X72.717 Y33.095 E1.36948
G1 X74.947 Y32.282 E1.50764
G1 X75.709 Y32.038 E1.55421
G1 X78.943 Y31.139 E1.74958
G1 X79.696 Y30.96 E1.79463
G1 X81.976 Y30.509 E1.92991
G1 X82.698 Y30.393 E1.97247
G1 X85.735 Y30.016 E2.1506
G1 X86.542 Y29.948 E2.19774
G1 X89.393 Y29.822 E2.36384
G1 X90.281 Y29.821 E2.41553
G1 X93.635 Y29.965 E2.61093
G1 X94.491 Y30.038 E2.66093
G1 X97.532 Y30.427 E2.83938
G1 X98.343 Y30.565 E2.88726
G1 X101.174 Y31.162 E3.05566
G1 X101.875 Y31.336 E3.0977
G1 X104.094 Y31.971 E3.23205
G1 X104.847 Y32.218 E3.27817
G1 X107.971 Y33.381 E3.4722
G1 X108.769 Y33.717 E3.52259
G1 X111.525 Y35.019 E3.70001
G1 X112.241 Y35.393 E3.74702
G1 X114.744 Y36.828 E3.91496
G1 X115.49 Y37.299 E3.96631
G1 X118.227 Y39.2 E4.16027
G1 X118.919 Y39.727 E4.2109
G1 X121.298 Y41.7 E4.3908
G1 X121.905 Y42.245 E4.43828
G1 X123.958 Y44.245 E4.6051
G1 X124.459 Y44.77 E4.64734
G1 X126.02 Y46.524 E4.78401
G1 X126.431 Y47.016 E4.82132
G1 X127.851 Y48.829 E4.95536
G1 X128.318 Y49.476 E5.00181
G1 X130.172 Y52.268 E5.19688
G1 X130.618 Y53.005 E5.24702
G1 X132.084 Y55.678 E5.42447
G1 X132.445 Y56.402 E5.47156
G1 X133.626 Y59.03 E5.63926
G1 X133.905 Y59.717 E5.68242
G1 X134.713 Y61.933 E5.8197
G1 X134.955 Y62.687 E5.8658
G1 X135.852 Y65.904 E6.06019
G1 X136.032 Y66.659 E6.10536
G1 X136.489 Y68.962 E6.24202
G1 X136.606 Y69.69 E6.28494
G1 X136.984 Y72.735 E6.46353
G1 X137.058 Y73.709 E6.52039
G1 X137.268 Y81.288 E6.9617
G1 X137.632 Y86.414 E7.26081
G1 X138.298 Y91.624 E7.56653
G1 X138.868 Y95.507 E7.79496
G1 X138.957 Y96.367 E7.84528
G1 X139.16 Y99.703 E8.03981
G1 X139.177 Y100.525 E8.08767
G1 X139.118 Y103.504 E8.2611
G1 X139.063 Y104.378 E8.31207
G1 X138.694 Y107.856 E8.51564
G1 X138.554 Y108.775 E8.56975
G1 X137.803 Y112.54 E8.79321
G1 X137.607 Y113.349 E8.84166
G1 X136.929 Y115.72 E8.9852
G1 X136.681 Y116.474 E9.0314
G1 X135.481 Y119.698 E9.23163
G1 X135.145 Y120.496 E9.28202
G1 X133.713 Y123.528 E9.4772
G1 X133.33 Y124.26 E9.52528
G1 X131.849 Y126.833 E9.69808
G1 X131.388 Y127.561 E9.74823
G1 X129.398 Y130.428 E9.95137
G1 X128.867 Y131.127 E10.00246
G1 X126.745 Y133.683 E10.19582
G1 X126.195 Y134.293 E10.24363
G1 X124.094 Y136.445 E10.41868
G1 X123.573 Y136.944 E10.46067
G1 X121.755 Y138.56 E10.60225
G1 X121.265 Y138.968 E10.63937
G1 X119.36 Y140.459 E10.78017
G1 X118.723 Y140.919 E10.8259
G1 X115.807 Y142.859 E11.02976
G1 X115.055 Y143.314 E11.08092
G1 X112.112 Y144.925 E11.2762
G1 X111.374 Y145.291 E11.32415
G1 X108.643 Y146.511 E11.49825
G1 X107.973 Y146.782 E11.54032
G1 X105.683 Y147.616 E11.68217
G1 X104.936 Y147.856 E11.72784
G1 X101.601 Y148.787 E11.92937
G1 X100.858 Y148.965 E11.97384
G1 X98.432 Y149.45 E12.11784
G1 X97.693 Y149.57 E12.16142
G1 X94.418 Y149.978 E12.35352
G1 X93.605 Y150.046 E12.401
G1 X90.605 Y150.178 E12.57579
G1 X89.731 Y150.179 E12.62666
G1 X86.284 Y150.035 E12.82747
G1 X85.416 Y149.962 E12.87817
G1 X82.094 Y149.537 E13.0731
G1 X81.282 Y149.399 E13.12104
G1 X78.349 Y148.78 E13.29552
G1 X77.651 Y148.607 E13.33738
G1 X75.28 Y147.929 E13.48091
G1 X74.526 Y147.681 E13.52711
G1 X71.302 Y146.481 E13.72734
G1 X70.504 Y146.145 E13.77774
G1 X67.468 Y144.711 E13.97317
G1 X66.735 Y144.328 E14.02131
G1 X64.166 Y142.849 E14.19385
G1 X63.439 Y142.388 E14.24395
G1 X60.572 Y140.398 E14.44709
G1 X59.87 Y139.865 E14.49839
G1 X57.299 Y137.729 E14.69294
G1 X56.69 Y137.18 E14.74067
G1 X54.552 Y135.092 E14.91461
G1 X54.055 Y134.571 E14.95652
G1 X52.44 Y132.754 E15.09802
G1 X52.032 Y132.265 E15.13508
G1 X50.541 Y130.36 E15.27589
G1 X50.081 Y129.723 E15.32162
G1 X48.141 Y126.807 E15.52548
G1 X47.685 Y126.053 E15.57677
G1 X46.073 Y123.107 E15.77223
G1 X45.708 Y122.372 E15.82
G1 X44.489 Y119.644 E15.99391
G1 X44.218 Y118.973 E16.03603
G1 X43.384 Y116.683 E16.17789
G1 X43.144 Y115.936 E16.22356
G1 X42.213 Y112.601 E16.42509
G1 X42.035 Y111.858 E16.46956
G1 X41.55 Y109.432 E16.61356
G1 X41.43 Y108.694 E16.65708
G1 X41.021 Y105.413 E16.84953
G1 X40.953 Y104.597 E16.89719
G1 X40.822 Y101.604 E17.07157
G1 X40.821 Y100.732 E17.12232
G1 X40.965 Y97.284 E17.32319
G1 X41.055 Y96.289 E17.38134
G1 X41.883 Y90.4 E17.72748
G1 X42.473 Y85.226 E18.03059
G1 X42.769 Y80.068 E18.3313
G1 X42.853 Y75.194 E18.61504
G1 X42.885 Y74.535 E18.65344
G1 X43.12 Y71.678 E18.82029
G1 X43.229 Y70.809 E18.87127
G1 X43.788 Y67.511 E19.06597
G1 X43.946 Y66.757 E19.11081
G1 X44.507 Y64.499 E19.24623
G1 X44.712 Y63.786 E19.28941
G1 X45.67 Y60.858 E19.46873
G1 X45.952 Y60.1 E19.5158
G1 X47.044 Y57.485 E19.68075
G1 X47.413 Y56.697 E19.73139
G1 X48.938 Y53.774 E19.92329
G1 X49.374 Y53.018 E19.97409
G1 X51.072 Y50.348 E20.15826
G1 X51.543 Y49.671 E20.20626
G1 X53.266 Y47.392 E20.37256
G1 X53.824 Y46.715 E20.42362
M207 X30
G1 F1200 E19.92362
G0 F3600 X67.829 Y46.553
G0 X68.616 Y47.567
G0 X72.087 Y46.195
G0 X72.123 Y46.287
M207 X20
;TYPE:WALL-INNER
G1 F1200 E20.42362
G1 F1800 X71.757 Y46.461 E20.44721
G1 X71.571 Y46.571 E20.45979
G1 X71.399 Y46.688 E20.4719
G1 X71.235 Y46.816 E20.484
G1 X71.081 Y46.952 E20.49596
G1 X70.934 Y47.099 E20.50806
G1 X70.795 Y47.257 E20.52031
G1 X70.67 Y47.421 E20.53231
G1 X70.555 Y47.59 E20.54421
G1 X70.449 Y47.77 E20.55637
G1 X70.356 Y47.955 E20.56842
G1 X70.274 Y48.143 E20.58036
G1 X70.203 Y48.339 E20.59249
G1 X70.145 Y48.54 E20.60467
G1 X70.101 Y48.742 E20.6167
G1 X70.068 Y48.946 E20.62873
G1 X70.049 Y49.155 E20.64095
G1 X70.044 Y49.36 E20.65288
G1 X70.05 Y49.576 E20.66546
G1 X70.101 Y49.975 E20.68887
G1 X70.133 Y50.108 E20.69684
G1 X70.103 Y50.236 E20.70449
G1 X70.068 Y50.446 E20.71688
G1 X70.049 Y50.655 E20.72909
G1 X70.044 Y50.86 E20.74103
G1 X70.05 Y51.076 E20.75361
G1 X70.101 Y51.475 E20.77702
G1 X70.133 Y51.608 E20.78498
G1 X70.103 Y51.736 E20.79263
G1 X70.068 Y51.946 E20.80503
G1 X70.049 Y52.155 E20.81724
G1 X70.044 Y52.36 E20.82918
G1 X70.05 Y52.576 E20.84175
G1 X70.102 Y52.979 E20.86541
G1 X70.206 Y53.381 E20.88957
G1 X70.356 Y53.757 E20.91314
G1 X70.455 Y53.95 E20.92576
G1 X70.56 Y54.128 E20.93779
G1 X70.676 Y54.3 E20.94987
G1 X70.804 Y54.463 E20.96193
G1 X70.942 Y54.619 E20.97405
G1 X71.089 Y54.764 E20.98607
G1 X71.243 Y54.901 E20.99807
G1 X71.409 Y55.028 E21.01023
G1 X71.581 Y55.145 E21.02234
G1 X71.759 Y55.249 E21.03434
G1 X71.943 Y55.343 E21.04637
G1 X72.135 Y55.426 E21.05854
G1 X72.33 Y55.495 E21.07058
G1 X72.527 Y55.552 E21.08252
G1 X72.73 Y55.598 E21.09463
G1 X72.936 Y55.63 E21.10677
G1 X73.143 Y55.649 E21.11887
G1 X73.35 Y55.655 E21.13092
G1 X73.557 Y55.648 E21.14297
G1 X73.772 Y55.627 E21.15555
G1 X74.162 Y55.553 E21.17865
G1 X74.378 Y55.488 E21.19178
G1 X74.744 Y55.343 E21.2147
G1 X74.94 Y55.244 E21.22748
G1 X75.118 Y55.137 E21.23957
G1 X75.287 Y55.022 E21.25146
G1 X75.451 Y54.894 E21.26357
G1 X75.606 Y54.758 E21.27558
G1 X75.754 Y54.61 E21.28776
G1 X75.89 Y54.454 E21.2998
G1 X76.017 Y54.292 E21.31179
G1 X76.133 Y54.119 E21.32391
G1 X76.239 Y53.94 E21.33602
G1 X76.333 Y53.754 E21.34815
G1 X76.414 Y53.563 E21.36022
G1 X76.484 Y53.371 E21.37212
G1 X76.542 Y53.172 E21.38418
G1 X76.587 Y52.968 E21.39634
G1 X76.619 Y52.764 E21.40836
G1 X76.638 Y52.556 E21.42052
G1 X76.644 Y52.348 E21.43263
G1 X76.637 Y52.142 E21.44463
G1 X76.617 Y51.936 E21.45667
G1 X76.583 Y51.725 E21.46911
G1 X76.554 Y51.605 E21.4763
G1 X76.585 Y51.474 E21.48414
G1 X76.619 Y51.264 E21.49652
G1 X76.638 Y51.056 E21.50867
G1 X76.644 Y50.848 E21.52079
G1 X76.637 Y50.642 E21.53278
G1 X76.617 Y50.436 E21.54483
G1 X76.583 Y50.225 E21.55727
G1 X76.554 Y50.105 E21.56446
G1 X76.585 Y49.974 E21.57229
G1 X76.619 Y49.764 E21.58467
G1 X76.638 Y49.556 E21.59683
G1 X76.644 Y49.348 E21.60894
G1 X76.637 Y49.142 E21.62094
G1 X76.617 Y48.936 E21.63299
G1 X76.584 Y48.731 E21.64507
G1 X76.54 Y48.529 E21.6571
G1 X76.477 Y48.32 E21.66981
G1 X76.332 Y47.954 E21.69272
G1 X76.234 Y47.761 E21.70532
G1 X76.127 Y47.581 E21.71751
G1 X76.01 Y47.41 E21.72957
G1 X75.883 Y47.247 E21.7416
G1 X75.747 Y47.092 E21.7536
G1 X75.6 Y46.945 E21.7657
G1 X75.442 Y46.806 E21.77795
G1 X75.278 Y46.681 E21.78995
G1 X75.106 Y46.565 E21.80203
G1 X74.928 Y46.461 E21.81403
G1 X74.744 Y46.367 E21.82605
G1 X74.552 Y46.285 E21.8382
G1 X74.361 Y46.216 E21.85003
G1 X74.161 Y46.156 E21.86218
G1 X73.955 Y46.112 E21.87444
G1 X73.751 Y46.08 E21.88646
G1 X73.544 Y46.061 E21.89856
G1 X73.339 Y46.055 E21.9105
G1 X73.131 Y46.061 E21.92261
G1 X72.922 Y46.082 E21.93483
G1 X72.72 Y46.115 E21.94675
G1 X72.509 Y46.162 E21.95933
G1 X72.123 Y46.287 E21.98294
M207 X30
G0 F3600 X72.087 Y46.195
G0 X88.939 Y41.269
G0 X88.971 Y41.363
M207 X20
G1 F1800 X88.603 Y41.51 E22.00601
G1 X88.411 Y41.608 E22.01856
G1 X88.232 Y41.713 E22.03064
G1 X88.059 Y41.831 E22.04282
G1 X87.896 Y41.958 E22.05485
G1 X87.741 Y42.094 E22.06685
G1 X87.594 Y42.241 E22.07895
G1 X87.458 Y42.396 E22.09096
G1 X87.331 Y42.559 E22.10298
G1 X87.213 Y42.732 E22.11517
G1 X87.108 Y42.911 E22.12725
G1 X87.014 Y43.094 E22.13923
G1 X86.932 Y43.285 E22.15132
G1 X86.862 Y43.48 E22.16338
G1 X86.804 Y43.678 E22.17539
G1 X86.758 Y43.881 E22.18751
G1 X86.726 Y44.087 E22.19964
G1 X86.706 Y44.294 E22.21175
G1 X86.7 Y44.5 E22.22374
G1 X86.706 Y44.706 E22.23574
G1 X86.726 Y44.914 E22.2479
G1 X86.76 Y45.125 E22.26034
G1 X86.79 Y45.25 E22.26782
G1 X86.76 Y45.375 E22.2753
G1 X86.726 Y45.586 E22.28774
G1 X86.706 Y45.794 E22.29991
G1 X86.7 Y46 E22.3119
G1 X86.706 Y46.206 E22.3239
G1 X86.726 Y46.414 E22.33606
G1 X86.76 Y46.625 E22.3485
G1 X86.79 Y46.75 E22.35598
G1 X86.76 Y46.875 E22.36346
G1 X86.726 Y47.086 E22.3759
G1 X86.706 Y47.294 E22.38807
G1 X86.7 Y47.5 E22.40006
G1 X86.706 Y47.706 E22.41206
G1 X86.726 Y47.913 E22.42416
G1 X86.758 Y48.119 E22.4363
G1 X86.804 Y48.322 E22.44841
G1 X86.864 Y48.529 E22.46095
G1 X87.01 Y48.897 E22.484
G1 X87.108 Y49.089 E22.49655
G1 X87.213 Y49.268 E22.50862
G1 X87.331 Y49.441 E22.52081
G1 X87.458 Y49.604 E22.53284
G1 X87.594 Y49.759 E22.54484
G1 X87.741 Y49.906 E22.55694
G1 X87.896 Y50.042 E22.56895
G1 X88.059 Y50.169 E22.58097
G1 X88.232 Y50.287 E22.59316
G1 X88.411 Y50.392 E22.60524
G1 X88.594 Y50.486 E22.61722
G1 X88.785 Y50.568 E22.62931
G1 X88.98 Y50.639 E22.64139
G1 X89.18 Y50.697 E22.65351
G1 X89.381 Y50.741 E22.66549
G1 X89.586 Y50.774 E22.67758
G1 X89.793 Y50.794 E22.68968
G1 X90 Y50.8 E22.70173
G1 X90.207 Y50.794 E22.71379
G1 X90.414 Y50.774 E22.72589
G1 X90.619 Y50.741 E22.73798
G1 X90.819 Y50.697 E22.7499
G1 X91.029 Y50.637 E22.76261
G1 X91.397 Y50.49 E22.78567
G1 X91.589 Y50.392 E22.79822
G1 X91.768 Y50.287 E22.8103
G1 X91.941 Y50.169 E22.82249
G1 X92.104 Y50.042 E22.83452
G1 X92.259 Y49.906 E22.84652
G1 X92.406 Y49.759 E22.85862
G1 X92.542 Y49.604 E22.87062
G1 X92.669 Y49.441 E22.88265
G1 X92.787 Y49.268 E22.89484
G1 X92.892 Y49.089 E22.90692
G1 X92.986 Y48.906 E22.91889
G1 X93.068 Y48.715 E22.93099
G1 X93.138 Y48.52 E22.94305
G1 X93.196 Y48.322 E22.95506
G1 X93.242 Y48.119 E22.96717
G1 X93.274 Y47.913 E22.97931
G1 X93.294 Y47.706 E22.99141
G1 X93.3 Y47.5 E23.00341
G1 X93.294 Y47.294 E23.0154
G1 X93.274 Y47.086 E23.02756
G1 X93.24 Y46.875 E23.04
G1 X93.21 Y46.75 E23.04749
G1 X93.24 Y46.625 E23.05497
G1 X93.274 Y46.414 E23.06741
G1 X93.294 Y46.206 E23.07957
G1 X93.3 Y46 E23.09157
G1 X93.294 Y45.794 E23.10356
G1 X93.274 Y45.586 E23.11572
G1 X93.24 Y45.375 E23.12816
G1 X93.21 Y45.25 E23.13565
G1 X93.24 Y45.125 E23.14313
G1 X93.274 Y44.914 E23.15557
G1 X93.294 Y44.706 E23.16773
G1 X93.3 Y44.5 E23.17973
G1 X93.294 Y44.294 E23.19172
G1 X93.274 Y44.087 E23.20383
G1 X93.242 Y43.881 E23.21596
G1 X93.196 Y43.678 E23.22807
G1 X93.136 Y43.471 E23.24062
G1 X92.99 Y43.103 E23.26366
G1 X92.892 Y42.911 E23.27621
G1 X92.787 Y42.732 E23.28829
G1 X92.669 Y42.559 E23.30048
G1 X92.542 Y42.396 E23.3125
G1 X92.406 Y42.241 E23.32451
G1 X92.259 Y42.094 E23.33661
G1 X92.104 Y41.958 E23.34861
G1 X91.941 Y41.831 E23.36064
G1 X91.768 Y41.713 E23.37283
G1 X91.589 Y41.608 E23.3849
G1 X91.406 Y41.514 E23.39688
G1 X91.215 Y41.432 E23.40898
G1 X91.02 Y41.361 E23.42106
G1 X90.82 Y41.303 E23.43318
G1 X90.619 Y41.259 E23.44515
G1 X90.414 Y41.226 E23.45724
G1 X90.207 Y41.206 E23.46934
G1 X90 Y41.2 E23.4814
G1 X89.793 Y41.206 E23.49345
G1 X89.586 Y41.226 E23.50556
G1 X89.381 Y41.259 E23.51764
G1 X89.181 Y41.303 E23.52956
G1 X88.971 Y41.363 E23.54227
M207 X30
G0 F3600 X88.939 Y41.269
G0 X90.209 Y41.167
G0 X91.032 Y41.323
G0 X91.789 Y41.68
G0 X92.311 Y42.112
G0 X104.152 Y54.655
G0 X104.226 Y54.588
M207 X20
G1 F1800 X104.412 Y54.773 E23.55754
G1 X104.57 Y54.91 E23.56971
G1 X104.733 Y55.035 E23.58167
G1 X104.903 Y55.15 E23.59362
G1 X105.085 Y55.257 E23.60591
G1 X105.273 Y55.35 E23.61811
G1 X105.46 Y55.429 E23.62993
G1 X105.654 Y55.498 E23.64191
G1 X105.855 Y55.556 E23.65409
G1 X106.058 Y55.599 E23.66617
G1 X106.262 Y55.631 E23.67819
G1 X106.479 Y55.65 E23.69087
G1 X106.875 Y55.648 E23.71392
G1 X107.09 Y55.626 E23.7265
G1 X107.304 Y55.591 E23.73912
G1 X107.685 Y55.49 E23.76206
G1 X107.891 Y55.416 E23.7748
G1 X108.091 Y55.327 E23.78754
G1 X108.433 Y55.135 E23.81037
G1 X108.613 Y55.013 E23.82303
G1 X108.782 Y54.879 E23.83558
G1 X109.053 Y54.625 E23.8572
G1 X109.196 Y54.463 E23.86978
G1 X109.324 Y54.3 E23.88184
G1 X109.44 Y54.128 E23.89391
G1 X109.545 Y53.95 E23.90594
G1 X109.64 Y53.765 E23.91805
G1 X109.723 Y53.575 E23.93012
G1 X109.793 Y53.38 E23.94218
G1 X109.851 Y53.182 E23.95418
G1 X109.899 Y52.973 E23.96667
G1 X109.95 Y52.573 E23.99014
G1 X109.956 Y52.36 E24.00254
G1 X109.95 Y52.154 E24.01453
G1 X109.93 Y51.937 E24.02722
G1 X109.866 Y51.611 E24.04656
G1 X109.897 Y51.482 E24.05428
G1 X109.929 Y51.274 E24.06653
G1 X109.95 Y51.068 E24.07858
G1 X109.956 Y50.86 E24.09069
G1 X109.95 Y50.654 E24.10269
G1 X109.93 Y50.437 E24.11537
G1 X109.866 Y50.111 E24.13471
G1 X109.897 Y49.982 E24.14243
G1 X109.929 Y49.774 E24.15468
G1 X109.95 Y49.568 E24.16673
G1 X109.956 Y49.36 E24.17884
G1 X109.95 Y49.154 E24.19084
G1 X109.931 Y48.939 E24.2034
G1 X109.858 Y48.55 E24.22644
G1 X109.795 Y48.331 E24.2397
G1 X109.649 Y47.962 E24.2628
G1 X109.551 Y47.769 E24.2754
G1 X109.445 Y47.59 E24.28751
G1 X109.33 Y47.421 E24.29941
G1 X109.205 Y47.257 E24.31141
G1 X109.066 Y47.099 E24.32366
G1 X108.919 Y46.952 E24.33576
G1 X108.765 Y46.816 E24.34772
G1 X108.601 Y46.688 E24.35982
G1 X108.429 Y46.571 E24.37193
G1 X108.252 Y46.466 E24.38391
G1 X108.067 Y46.371 E24.39602
G1 X107.876 Y46.288 E24.40814
G1 X107.681 Y46.219 E24.42018
G1 X107.482 Y46.159 E24.43227
G1 X107.28 Y46.115 E24.44431
G1 X107.078 Y46.082 E24.45622
G1 X106.869 Y46.061 E24.46845
G1 X106.661 Y46.055 E24.48056
G1 X106.446 Y46.061 E24.49308
G1 X106.053 Y46.11 E24.51613
G1 X105.832 Y46.158 E24.52929
G1 X105.455 Y46.281 E24.55238
G1 X105.256 Y46.367 E24.56499
G1 X105.072 Y46.461 E24.57702
G1 X104.894 Y46.565 E24.58902
G1 X104.722 Y46.681 E24.60109
G1 X104.558 Y46.806 E24.6131
G1 X104.4 Y46.945 E24.62535
G1 X104.253 Y47.092 E24.63745
G1 X104.117 Y47.247 E24.64945
G1 X103.99 Y47.41 E24.66147
G1 X103.873 Y47.581 E24.67353
G1 X103.766 Y47.76 E24.68567
G1 X103.672 Y47.946 E24.6978
G1 X103.59 Y48.134 E24.70974
G1 X103.52 Y48.329 E24.7218
G1 X103.46 Y48.529 E24.73395
G1 X103.416 Y48.731 E24.74599
G1 X103.383 Y48.936 E24.75807
G1 X103.363 Y49.142 E24.77012
G1 X103.356 Y49.348 E24.78212
G1 X103.362 Y49.556 E24.79423
G1 X103.381 Y49.764 E24.80639
G1 X103.415 Y49.974 E24.81877
G1 X103.446 Y50.105 E24.8266
G1 X103.417 Y50.225 E24.83379
G1 X103.383 Y50.436 E24.84623
G1 X103.363 Y50.642 E24.85828
G1 X103.356 Y50.848 E24.87027
G1 X103.362 Y51.056 E24.88238
G1 X103.381 Y51.264 E24.89454
G1 X103.415 Y51.474 E24.90692
G1 X103.445 Y51.6 E24.91446
G1 X103.388 Y51.908 E24.93269
